; Generated by Nick&Em's Slycer at 'I'm too lazy to import datetime'C

; Perimeter Layers: 3
; Infill: 20.0%%
; Layer Height: 0.19mm
; Nozzle Size: 0.4mm
; Support Off
; Temperature 210 degrees C

; SETUP
M107 ; fan off
M104 S210 ; set temperature
G28 X0 Y0 Z0 ; home all axes
G1 Z5 F5000 ; lift nozzle

M109 S210 ; wait for temperature to be reached
G21 ; set units to millimeters
G90 ; use absolute coordinates
M82 ; use absolute distances for extrusion
G1 Z0.400 F2400 ; put printhead at good distance from bed
G92 E0
G29 ; idk but cura does this to touch the corners
; LAYER Z=0.190000
G1 Z0.190000 ; raise print head
; PERIMETER 0
G1 X0.190000 Y0.000000
G1 X0.000000 Y0.000000 E0.043429
G1 X0.000000 Y0.190000 E0.086857
G1 X0.000000 Y15.000000 E3.472000
G1 X14.810000 Y15.000000 E6.857143
G1 X15.000000 Y15.000000 E6.900571
G1 X15.000000 Y14.810000 E6.944000
G1 X15.000000 Y0.000000 E10.329143
G1 X0.190000 Y0.000000 E13.714286
G1 X0.190000 Y0.800000
G1 X0.400000 Y0.400000 E13.817548
G1 X0.800000 Y0.190000 E13.920811
G1 X0.400000 Y14.600000 E17.215794
G1 X14.810000 Y14.200000 E20.510777
G1 X14.600000 Y14.600000 E20.614040
G1 X14.200000 Y14.810000 E20.717302
G1 X14.600000 Y0.400000 E24.012285
G1 X0.190000 Y0.800000 E27.307268
G1 X0.190000 Y1.600000
G1 X0.800000 Y0.800000 E27.537219
G1 X1.600000 Y0.190000 E27.767169
G1 X0.800000 Y14.200000 E30.974671
G1 X14.810000 Y13.400000 E34.182173
G1 X14.200000 Y14.200000 E34.412123
G1 X13.400000 Y14.810000 E34.642073
G1 X14.200000 Y0.800000 E37.849576
G1 X0.190000 Y1.600000 E41.057078
; INFILL
G1 X2.311830 Y1.190000
G1 X1.212 Y1.190 E41.30849
G1 X0.366750 Y2.190000
G1 X2.572 Y2.190 E41.81249
G1 X1.959148 Y5.190000
G1 X13.448 Y5.190 E44.43856
; CLEANUP
M104 S0 ; turn off heat
G91 ; relative positioning
G1 E-1 F300 ; retract the filament before lifting nozzle
G1 Z+0.5 E-3 X-20 Y-20 F4200 ;move Z up a bit and retract filament more
G28 X0 Y0 ; move X/Y to min endstops, moving head out of the way
M84 ; disable motors
G90 ; absolute positioning
