; Generated by Nick&Em's Slycer at 'I'm too lazy to import datetime'C

; Perimeter Layers: 2
; Infill: 20.0%%
; Layer Height: 0.19mm
; Nozzle Size: 0.4mm
; Support Off
; Temperature 210 degrees C

; SETUP
M107 ; fan off
M104 S210 ; set temperature
G28 X0 Y0 Z0 ; home all axes
G1 Z5 F5000 ; lift nozzle

M109 S210 ; wait for temperature to be reached
G21 ; set units to millimeters
G90 ; use absolute coordinates
M82 ; use absolute distances for extrusion
G1 Z0.400 F2400 ; put printhead at good distance from bed
G92 E0
G29 ; idk but cura does this to touch the corners
; LAYER Z=0.000000
G1 Z0.000000 ; raise print head
; PERIMETER 0
G1 X10.000000 Y5.000000
G1 X10.000000 Y15.000000 E2.285714
G1 X20.000000 Y15.000000 E4.571429
G1 X30.000000 Y15.000000 E6.857143
G1 X30.000000 Y5.000000 E9.142857
G1 X30.000000 Y-5.000000 E11.428571
G1 X20.000000 Y-5.000000 E13.714286
G1 X10.000000 Y-5.000000 E16.000000
G1 X10.000000 Y5.000000 E18.285714
G1 X10.400000 Y5.000000
G1 X10.200000 Y14.800000 E20.526181
G1 X20.000000 Y14.600000 E22.766647
G1 X29.800000 Y14.800000 E25.007114
G1 X29.600000 Y5.000000 E27.247580
G1 X29.800000 Y-4.800000 E29.488046
G1 X20.000000 Y-4.600000 E31.728513
G1 X10.200000 Y-4.800000 E33.968979
G1 X10.400000 Y5.000000 E36.209446
; INFILL
; NEW INFILL LINE
G1 X10.483333 Y-2.600000
G1 X29.517 Y-2.600 E40.55992
; NEW INFILL LINE
G1 X10.566667 Y-0.600000
G1 X29.433 Y-0.600 E44.87230
; NEW INFILL LINE
G1 X10.650000 Y1.400000
G1 X29.350 Y1.400 E49.14659
; NEW INFILL LINE
G1 X10.733333 Y3.400000
G1 X29.267 Y3.400 E53.38278
; NEW INFILL LINE
G1 X10.783333 Y5.400000
G1 X29.217 Y5.400 E57.59611
; NEW INFILL LINE
G1 X10.700000 Y7.400000
G1 X29.300 Y7.400 E61.84754
; NEW INFILL LINE
G1 X10.616667 Y9.400000
G1 X29.383 Y9.400 E66.13706
; NEW INFILL LINE
G1 X10.533333 Y11.400000
G1 X29.467 Y11.400 E70.46468
; NEW INFILL LINE
G1 X10.450000 Y13.400000
G1 X29.550 Y13.400 E74.83040
; Parallel rasterized triangle on layer 0.0
G1 X30.000000 Y5.000000
G1 X30.000000 Y5.000000 E74.830398
G1 X30.000000 Y4.600000
G1 X29.600000 Y4.600000 E74.921827
G1 X30.000000 Y4.200000
G1 X29.200000 Y4.200000 E75.104684
G1 X30.000000 Y3.800000
G1 X28.800000 Y3.800000 E75.378969
G1 X30.000000 Y3.400000
G1 X28.400000 Y3.400000 E75.744684
G1 X30.000000 Y3.000000
G1 X28.000000 Y3.000000 E76.201827
G1 X30.000000 Y2.600000
G1 X27.600000 Y2.600000 E76.750398
G1 X30.000000 Y2.200000
G1 X27.200000 Y2.200000 E77.390398
G1 X30.000000 Y1.800000
G1 X26.800000 Y1.800000 E78.121827
G1 X30.000000 Y1.400000
G1 X26.400000 Y1.400000 E78.944684
G1 X30.000000 Y1.000000
G1 X26.000000 Y1.000000 E79.858969
G1 X30.000000 Y0.600000
G1 X25.600000 Y0.600000 E80.864684
G1 X30.000000 Y0.200000
G1 X25.200000 Y0.200000 E81.961827
G1 X30.000000 Y-0.200000
G1 X24.800000 Y-0.200000 E83.150398
G1 X30.000000 Y-0.600000
G1 X24.400000 Y-0.600000 E84.430398
G1 X30.000000 Y-1.000000
G1 X24.000000 Y-1.000000 E85.801827
G1 X30.000000 Y-1.400000
G1 X23.600000 Y-1.400000 E87.264684
G1 X30.000000 Y-1.800000
G1 X23.200000 Y-1.800000 E88.818969
G1 X30.000000 Y-2.200000
G1 X22.800000 Y-2.200000 E90.464684
G1 X30.000000 Y-2.600000
G1 X22.400000 Y-2.600000 E92.201827
G1 X30.000000 Y-3.000000
G1 X22.000000 Y-3.000000 E94.030398
G1 X30.000000 Y-3.400000
G1 X21.600000 Y-3.400000 E95.950398
G1 X30.000000 Y-3.800000
G1 X21.200000 Y-3.800000 E97.961827
G1 X30.000000 Y-4.200000
G1 X20.800000 Y-4.200000 E100.064684
G1 X30.000000 Y-4.600000
G1 X20.400000 Y-4.600000 E102.258969
; Parallel rasterized triangle on layer 0.0
G1 X20.000000 Y-5.000000
G1 X20.000000 Y-5.000000 E102.258969
G1 X20.400000 Y-4.600000
G1 X20.000000 Y-4.600000 E102.350398
G1 X20.800000 Y-4.200000
G1 X20.000000 Y-4.200000 E102.533255
G1 X21.200000 Y-3.800000
G1 X20.000000 Y-3.800000 E102.807541
G1 X21.600000 Y-3.400000
G1 X20.000000 Y-3.400000 E103.173255
G1 X22.000000 Y-3.000000
G1 X20.000000 Y-3.000000 E103.630398
G1 X22.400000 Y-2.600000
G1 X20.000000 Y-2.600000 E104.178969
G1 X22.800000 Y-2.200000
G1 X20.000000 Y-2.200000 E104.818969
G1 X23.200000 Y-1.800000
G1 X20.000000 Y-1.800000 E105.550398
G1 X23.600000 Y-1.400000
G1 X20.000000 Y-1.400000 E106.373255
G1 X24.000000 Y-1.000000
G1 X20.000000 Y-1.000000 E107.287541
G1 X24.400000 Y-0.600000
G1 X20.000000 Y-0.600000 E108.293255
G1 X24.800000 Y-0.200000
G1 X20.000000 Y-0.200000 E109.390398
G1 X25.200000 Y0.200000
G1 X20.000000 Y0.200000 E110.578969
G1 X25.600000 Y0.600000
G1 X20.000000 Y0.600000 E111.858969
G1 X26.000000 Y1.000000
G1 X20.000000 Y1.000000 E113.230398
G1 X26.400000 Y1.400000
G1 X20.000000 Y1.400000 E114.693255
G1 X26.800000 Y1.800000
G1 X20.000000 Y1.800000 E116.247541
G1 X27.200000 Y2.200000
G1 X20.000000 Y2.200000 E117.893255
G1 X27.600000 Y2.600000
G1 X20.000000 Y2.600000 E119.630398
G1 X28.000000 Y3.000000
G1 X20.000000 Y3.000000 E121.458969
G1 X28.400000 Y3.400000
G1 X20.000000 Y3.400000 E123.378969
G1 X28.800000 Y3.800000
G1 X20.000000 Y3.800000 E125.390398
G1 X29.200000 Y4.200000
G1 X20.000000 Y4.200000 E127.493255
G1 X29.600000 Y4.600000
G1 X20.000000 Y4.600000 E129.687541
; Parallel rasterized triangle on layer 0.0
G1 X20.000000 Y5.000000
G1 X20.000000 Y5.000000 E129.687541
G1 X20.400000 Y5.400000
G1 X20.000000 Y5.400000 E129.778969
G1 X20.800000 Y5.800000
G1 X20.000000 Y5.800000 E129.961827
G1 X21.200000 Y6.200000
G1 X20.000000 Y6.200000 E130.236112
G1 X21.600000 Y6.600000
G1 X20.000000 Y6.600000 E130.601827
G1 X22.000000 Y7.000000
G1 X20.000000 Y7.000000 E131.058969
G1 X22.400000 Y7.400000
G1 X20.000000 Y7.400000 E131.607541
G1 X22.800000 Y7.800000
G1 X20.000000 Y7.800000 E132.247541
G1 X23.200000 Y8.200000
G1 X20.000000 Y8.200000 E132.978969
G1 X23.600000 Y8.600000
G1 X20.000000 Y8.600000 E133.801827
G1 X24.000000 Y9.000000
G1 X20.000000 Y9.000000 E134.716112
G1 X24.400000 Y9.400000
G1 X20.000000 Y9.400000 E135.721827
G1 X24.800000 Y9.800000
G1 X20.000000 Y9.800000 E136.818969
G1 X25.200000 Y10.200000
G1 X20.000000 Y10.200000 E138.007541
G1 X25.600000 Y10.600000
G1 X20.000000 Y10.600000 E139.287541
G1 X26.000000 Y11.000000
G1 X20.000000 Y11.000000 E140.658969
G1 X26.400000 Y11.400000
G1 X20.000000 Y11.400000 E142.121827
G1 X26.800000 Y11.800000
G1 X20.000000 Y11.800000 E143.676112
G1 X27.200000 Y12.200000
G1 X20.000000 Y12.200000 E145.321827
G1 X27.600000 Y12.600000
G1 X20.000000 Y12.600000 E147.058969
G1 X28.000000 Y13.000000
G1 X20.000000 Y13.000000 E148.887541
G1 X28.400000 Y13.400000
G1 X20.000000 Y13.400000 E150.807541
G1 X28.800000 Y13.800000
G1 X20.000000 Y13.800000 E152.818969
G1 X29.200000 Y14.200000
G1 X20.000000 Y14.200000 E154.921827
G1 X29.600000 Y14.600000
G1 X20.000000 Y14.600000 E157.116112
; Parallel rasterized triangle on layer 0.0
G1 X30.000000 Y15.000000
G1 X30.000000 Y15.000000 E157.116112
G1 X30.000000 Y14.600000
G1 X29.600000 Y14.600000 E157.207541
G1 X30.000000 Y14.200000
G1 X29.200000 Y14.200000 E157.390398
G1 X30.000000 Y13.800000
G1 X28.800000 Y13.800000 E157.664684
G1 X30.000000 Y13.400000
G1 X28.400000 Y13.400000 E158.030398
G1 X30.000000 Y13.000000
G1 X28.000000 Y13.000000 E158.487541
G1 X30.000000 Y12.600000
G1 X27.600000 Y12.600000 E159.036112
G1 X30.000000 Y12.200000
G1 X27.200000 Y12.200000 E159.676112
G1 X30.000000 Y11.800000
G1 X26.800000 Y11.800000 E160.407541
G1 X30.000000 Y11.400000
G1 X26.400000 Y11.400000 E161.230398
G1 X30.000000 Y11.000000
G1 X26.000000 Y11.000000 E162.144684
G1 X30.000000 Y10.600000
G1 X25.600000 Y10.600000 E163.150398
G1 X30.000000 Y10.200000
G1 X25.200000 Y10.200000 E164.247541
G1 X30.000000 Y9.800000
G1 X24.800000 Y9.800000 E165.436112
G1 X30.000000 Y9.400000
G1 X24.400000 Y9.400000 E166.716112
G1 X30.000000 Y9.000000
G1 X24.000000 Y9.000000 E168.087541
G1 X30.000000 Y8.600000
G1 X23.600000 Y8.600000 E169.550398
G1 X30.000000 Y8.200000
G1 X23.200000 Y8.200000 E171.104684
G1 X30.000000 Y7.800000
G1 X22.800000 Y7.800000 E172.750398
G1 X30.000000 Y7.400000
G1 X22.400000 Y7.400000 E174.487541
G1 X30.000000 Y7.000000
G1 X22.000000 Y7.000000 E176.316112
G1 X30.000000 Y6.600000
G1 X21.600000 Y6.600000 E178.236112
G1 X30.000000 Y6.200000
G1 X21.200000 Y6.200000 E180.247541
G1 X30.000000 Y5.800000
G1 X20.800000 Y5.800000 E182.350398
G1 X30.000000 Y5.400000
G1 X20.400000 Y5.400000 E184.544684
; Parallel rasterized triangle on layer 0.0
G1 X20.000000 Y5.000000
G1 X20.000000 Y5.000000 E184.544684
G1 X20.000000 Y4.600000
G1 X19.600000 Y4.600000 E184.636112
G1 X20.000000 Y4.200000
G1 X19.200000 Y4.200000 E184.818969
G1 X20.000000 Y3.800000
G1 X18.800000 Y3.800000 E185.093255
G1 X20.000000 Y3.400000
G1 X18.400000 Y3.400000 E185.458969
G1 X20.000000 Y3.000000
G1 X18.000000 Y3.000000 E185.916112
G1 X20.000000 Y2.600000
G1 X17.600000 Y2.600000 E186.464684
G1 X20.000000 Y2.200000
G1 X17.200000 Y2.200000 E187.104684
G1 X20.000000 Y1.800000
G1 X16.800000 Y1.800000 E187.836112
G1 X20.000000 Y1.400000
G1 X16.400000 Y1.400000 E188.658969
G1 X20.000000 Y1.000000
G1 X16.000000 Y1.000000 E189.573255
G1 X20.000000 Y0.600000
G1 X15.600000 Y0.600000 E190.578969
G1 X20.000000 Y0.200000
G1 X15.200000 Y0.200000 E191.676112
G1 X20.000000 Y-0.200000
G1 X14.800000 Y-0.200000 E192.864684
G1 X20.000000 Y-0.600000
G1 X14.400000 Y-0.600000 E194.144684
G1 X20.000000 Y-1.000000
G1 X14.000000 Y-1.000000 E195.516112
G1 X20.000000 Y-1.400000
G1 X13.600000 Y-1.400000 E196.978969
G1 X20.000000 Y-1.800000
G1 X13.200000 Y-1.800000 E198.533255
G1 X20.000000 Y-2.200000
G1 X12.800000 Y-2.200000 E200.178969
G1 X20.000000 Y-2.600000
G1 X12.400000 Y-2.600000 E201.916112
G1 X20.000000 Y-3.000000
G1 X12.000000 Y-3.000000 E203.744684
G1 X20.000000 Y-3.400000
G1 X11.600000 Y-3.400000 E205.664684
G1 X20.000000 Y-3.800000
G1 X11.200000 Y-3.800000 E207.676112
G1 X20.000000 Y-4.200000
G1 X10.800000 Y-4.200000 E209.778969
G1 X20.000000 Y-4.600000
G1 X10.400000 Y-4.600000 E211.973255
; Parallel rasterized triangle on layer 0.0
G1 X10.000000 Y-5.000000
G1 X10.000000 Y-5.000000 E211.973255
G1 X10.400000 Y-4.600000
G1 X10.000000 Y-4.600000 E212.064684
G1 X10.800000 Y-4.200000
G1 X10.000000 Y-4.200000 E212.247541
G1 X11.200000 Y-3.800000
G1 X10.000000 Y-3.800000 E212.521827
G1 X11.600000 Y-3.400000
G1 X10.000000 Y-3.400000 E212.887541
G1 X12.000000 Y-3.000000
G1 X10.000000 Y-3.000000 E213.344684
G1 X12.400000 Y-2.600000
G1 X10.000000 Y-2.600000 E213.893255
G1 X12.800000 Y-2.200000
G1 X10.000000 Y-2.200000 E214.533255
G1 X13.200000 Y-1.800000
G1 X10.000000 Y-1.800000 E215.264684
G1 X13.600000 Y-1.400000
G1 X10.000000 Y-1.400000 E216.087541
G1 X14.000000 Y-1.000000
G1 X10.000000 Y-1.000000 E217.001827
G1 X14.400000 Y-0.600000
G1 X10.000000 Y-0.600000 E218.007541
G1 X14.800000 Y-0.200000
G1 X10.000000 Y-0.200000 E219.104684
G1 X15.200000 Y0.200000
G1 X10.000000 Y0.200000 E220.293255
G1 X15.600000 Y0.600000
G1 X10.000000 Y0.600000 E221.573255
G1 X16.000000 Y1.000000
G1 X10.000000 Y1.000000 E222.944684
G1 X16.400000 Y1.400000
G1 X10.000000 Y1.400000 E224.407541
G1 X16.800000 Y1.800000
G1 X10.000000 Y1.800000 E225.961827
G1 X17.200000 Y2.200000
G1 X10.000000 Y2.200000 E227.607541
G1 X17.600000 Y2.600000
G1 X10.000000 Y2.600000 E229.344684
G1 X18.000000 Y3.000000
G1 X10.000000 Y3.000000 E231.173255
G1 X18.400000 Y3.400000
G1 X10.000000 Y3.400000 E233.093255
G1 X18.800000 Y3.800000
G1 X10.000000 Y3.800000 E235.104684
G1 X19.200000 Y4.200000
G1 X10.000000 Y4.200000 E237.207541
G1 X19.600000 Y4.600000
G1 X10.000000 Y4.600000 E239.401827
; Parallel rasterized triangle on layer 0.0
G1 X10.000000 Y5.000000
G1 X10.000000 Y5.000000 E239.401827
G1 X10.400000 Y5.400000
G1 X10.000000 Y5.400000 E239.493255
G1 X10.800000 Y5.800000
G1 X10.000000 Y5.800000 E239.676112
G1 X11.200000 Y6.200000
G1 X10.000000 Y6.200000 E239.950398
G1 X11.600000 Y6.600000
G1 X10.000000 Y6.600000 E240.316112
G1 X12.000000 Y7.000000
G1 X10.000000 Y7.000000 E240.773255
G1 X12.400000 Y7.400000
G1 X10.000000 Y7.400000 E241.321827
G1 X12.800000 Y7.800000
G1 X10.000000 Y7.800000 E241.961827
G1 X13.200000 Y8.200000
G1 X10.000000 Y8.200000 E242.693255
G1 X13.600000 Y8.600000
G1 X10.000000 Y8.600000 E243.516112
G1 X14.000000 Y9.000000
G1 X10.000000 Y9.000000 E244.430398
G1 X14.400000 Y9.400000
G1 X10.000000 Y9.400000 E245.436112
G1 X14.800000 Y9.800000
G1 X10.000000 Y9.800000 E246.533255
G1 X15.200000 Y10.200000
G1 X10.000000 Y10.200000 E247.721827
G1 X15.600000 Y10.600000
G1 X10.000000 Y10.600000 E249.001827
G1 X16.000000 Y11.000000
G1 X10.000000 Y11.000000 E250.373255
G1 X16.400000 Y11.400000
G1 X10.000000 Y11.400000 E251.836112
G1 X16.800000 Y11.800000
G1 X10.000000 Y11.800000 E253.390398
G1 X17.200000 Y12.200000
G1 X10.000000 Y12.200000 E255.036112
G1 X17.600000 Y12.600000
G1 X10.000000 Y12.600000 E256.773255
G1 X18.000000 Y13.000000
G1 X10.000000 Y13.000000 E258.601827
G1 X18.400000 Y13.400000
G1 X10.000000 Y13.400000 E260.521827
G1 X18.800000 Y13.800000
G1 X10.000000 Y13.800000 E262.533255
G1 X19.200000 Y14.200000
G1 X10.000000 Y14.200000 E264.636112
G1 X19.600000 Y14.600000
G1 X10.000000 Y14.600000 E266.830398
; Parallel rasterized triangle on layer 0.0
G1 X20.000000 Y15.000000
G1 X20.000000 Y15.000000 E266.830398
G1 X20.000000 Y14.600000
G1 X19.600000 Y14.600000 E266.921827
G1 X20.000000 Y14.200000
G1 X19.200000 Y14.200000 E267.104684
G1 X20.000000 Y13.800000
G1 X18.800000 Y13.800000 E267.378969
G1 X20.000000 Y13.400000
G1 X18.400000 Y13.400000 E267.744684
G1 X20.000000 Y13.000000
G1 X18.000000 Y13.000000 E268.201827
G1 X20.000000 Y12.600000
G1 X17.600000 Y12.600000 E268.750398
G1 X20.000000 Y12.200000
G1 X17.200000 Y12.200000 E269.390398
G1 X20.000000 Y11.800000
G1 X16.800000 Y11.800000 E270.121827
G1 X20.000000 Y11.400000
G1 X16.400000 Y11.400000 E270.944684
G1 X20.000000 Y11.000000
G1 X16.000000 Y11.000000 E271.858969
G1 X20.000000 Y10.600000
G1 X15.600000 Y10.600000 E272.864684
G1 X20.000000 Y10.200000
G1 X15.200000 Y10.200000 E273.961827
G1 X20.000000 Y9.800000
G1 X14.800000 Y9.800000 E275.150398
G1 X20.000000 Y9.400000
G1 X14.400000 Y9.400000 E276.430398
G1 X20.000000 Y9.000000
G1 X14.000000 Y9.000000 E277.801827
G1 X20.000000 Y8.600000
G1 X13.600000 Y8.600000 E279.264684
G1 X20.000000 Y8.200000
G1 X13.200000 Y8.200000 E280.818969
G1 X20.000000 Y7.800000
G1 X12.800000 Y7.800000 E282.464684
G1 X20.000000 Y7.400000
G1 X12.400000 Y7.400000 E284.201827
G1 X20.000000 Y7.000000
G1 X12.000000 Y7.000000 E286.030398
G1 X20.000000 Y6.600000
G1 X11.600000 Y6.600000 E287.950398
G1 X20.000000 Y6.200000
G1 X11.200000 Y6.200000 E289.961827
G1 X20.000000 Y5.800000
G1 X10.800000 Y5.800000 E292.064684
G1 X20.000000 Y5.400000
G1 X10.400000 Y5.400000 E294.258969
; LAYER Z=0.190000
G1 Z0.190000 ; raise print head
; PERIMETER 0
G1 X10.000000 Y15.000000
G1 X10.000000 Y5.633333 E296.399922
G1 X10.000000 Y5.000000 E296.544684
G1 X10.000000 Y-4.366667 E298.685636
G1 X10.000000 Y-5.000000 E298.830398
G1 X19.366667 Y-5.000000 E300.971350
G1 X20.000000 Y-5.000000 E301.116112
G1 X29.366667 Y-5.000000 E303.257065
G1 X30.000000 Y-5.000000 E303.401827
G1 X30.000000 Y4.366667 E305.542779
G1 X30.000000 Y5.000000 E305.687541
G1 X30.000000 Y14.366667 E307.828493
G1 X30.000000 Y15.000000 E307.973255
G1 X20.633333 Y15.000000 E310.114208
G1 X20.000000 Y15.000000 E310.258969
G1 X10.633333 Y15.000000 E312.399922
G1 X10.000000 Y15.000000 E312.544684
G1 X10.200000 Y14.800000
G1 X10.400000 Y5.633333 E314.640421
G1 X10.400000 Y5.000000 E314.785182
G1 X10.400000 Y-4.366667 E316.926135
G1 X10.200000 Y-4.800000 E317.035223
G1 X19.366667 Y-4.600000 E319.130960
G1 X20.000000 Y-4.600000 E319.275722
G1 X29.366667 Y-4.600000 E321.416674
G1 X29.800000 Y-4.800000 E321.525762
G1 X29.600000 Y4.366667 E323.621499
G1 X29.600000 Y5.000000 E323.766261
G1 X29.600000 Y14.366667 E325.907213
G1 X29.800000 Y14.800000 E326.016301
G1 X20.633333 Y14.600000 E328.112038
G1 X20.000000 Y14.600000 E328.256800
G1 X10.633333 Y14.600000 E330.397752
G1 X10.200000 Y14.800000 E330.506841
; INFILL
; NEW INFILL LINE
G1 X10.800000 Y-2.600000
G1 X29.511 Y-2.600 E334.78359
; NEW INFILL LINE
G1 X10.800000 Y-0.600000
G1 X29.422 Y-0.600 E339.03995
; NEW INFILL LINE
G1 X10.800000 Y1.400000
G1 X29.332 Y1.400 E343.27591
; NEW INFILL LINE
G1 X10.800000 Y3.400000
