; Generated by Nick&Em's Slycer at 'I'm too lazy to import datetime'C

; Perimeter Layers: 2
; Infill: 20.0%%
; Layer Height: 0.19mm
; Nozzle Size: 0.4mm
; Support Off
; Temperature 210 degrees C

; SETUP
M107 ; fan off
M104 S210 ; set temperature
G28 X0 Y0 Z0 ; home all axes
G1 Z5 F5000 ; lift nozzle

M109 S210 ; wait for temperature to be reached
G21 ; set units to millimeters
G90 ; use absolute coordinates
M82 ; use absolute distances for extrusion
G1 Z0.400 F2400 ; put printhead at good distance from bed
G92 E0
G29 ; idk but cura does this to touch the corners
; LAYER Z=0.000000
G1 Z0.000000 ; raise print head
; PERIMETER 0
G1 X15.000000 Y0.000000
G1 X0.000000 Y0.000000 E3.428571
G1 X0.000000 Y15.000000 E6.857143
G1 X15.000000 Y15.000000 E10.285714
G1 X15.000000 Y0.000000 E13.714286
G1 X14.800000 Y0.200000
G1 X0.200000 Y0.200000 E17.051429
G1 X0.200000 Y14.800000 E20.388571
G1 X14.800000 Y14.800000 E23.725714
G1 X14.800000 Y0.200000 E27.062857
; INFILL
; NEW INFILL LINE
G1 X0.400000 Y2.400000
G1 X14.600 Y2.400 E30.30857
; NEW INFILL LINE
G1 X0.400000 Y4.400000
G1 X14.600 Y4.400 E33.55429
; NEW INFILL LINE
G1 X0.400000 Y6.400000
G1 X14.600 Y6.400 E36.80000
; NEW INFILL LINE
G1 X0.400000 Y8.400000
G1 X14.600 Y8.400 E40.04571
; NEW INFILL LINE
G1 X0.400000 Y10.400000
G1 X14.600 Y10.400 E43.29143
; NEW INFILL LINE
G1 X0.400000 Y12.400000
G1 X14.600 Y12.400 E46.53714
; NEW INFILL LINE
G1 X0.400000 Y14.400000
G1 X14.600 Y14.400 E49.78286
; Parallel rasterized triangle on layer 0.0
G1 X15.000000 Y15.000000
G1 X15.000000 Y15.000000 E49.782857
G1 X14.600000 Y14.600000
G1 X15.000000 Y14.600000 E49.874286
G1 X14.200000 Y14.200000
G1 X15.000000 Y14.200000 E50.057143
G1 X13.800000 Y13.800000
G1 X15.000000 Y13.800000 E50.331429
G1 X13.400000 Y13.400000
G1 X15.000000 Y13.400000 E50.697143
G1 X13.000000 Y13.000000
G1 X15.000000 Y13.000000 E51.154286
G1 X12.600000 Y12.600000
G1 X15.000000 Y12.600000 E51.702857
G1 X12.200000 Y12.200000
G1 X15.000000 Y12.200000 E52.342857
G1 X11.800000 Y11.800000
G1 X15.000000 Y11.800000 E53.074286
G1 X11.400000 Y11.400000
G1 X15.000000 Y11.400000 E53.897143
G1 X11.000000 Y11.000000
G1 X15.000000 Y11.000000 E54.811429
G1 X10.600000 Y10.600000
G1 X15.000000 Y10.600000 E55.817143
G1 X10.200000 Y10.200000
G1 X15.000000 Y10.200000 E56.914286
G1 X9.800000 Y9.800000
G1 X15.000000 Y9.800000 E58.102857
G1 X9.400000 Y9.400000
G1 X15.000000 Y9.400000 E59.382857
G1 X9.000000 Y9.000000
G1 X15.000000 Y9.000000 E60.754286
G1 X8.600000 Y8.600000
G1 X15.000000 Y8.600000 E62.217143
G1 X8.200000 Y8.200000
G1 X15.000000 Y8.200000 E63.771429
G1 X7.800000 Y7.800000
G1 X15.000000 Y7.800000 E65.417143
G1 X7.400000 Y7.400000
G1 X15.000000 Y7.400000 E67.154286
G1 X7.000000 Y7.000000
G1 X15.000000 Y7.000000 E68.982857
G1 X6.600000 Y6.600000
G1 X15.000000 Y6.600000 E70.902857
G1 X6.200000 Y6.200000
G1 X15.000000 Y6.200000 E72.914286
G1 X5.800000 Y5.800000
G1 X15.000000 Y5.800000 E75.017143
G1 X5.400000 Y5.400000
G1 X15.000000 Y5.400000 E77.211429
G1 X5.000000 Y5.000000
G1 X15.000000 Y5.000000 E79.497143
G1 X4.600000 Y4.600000
G1 X15.000000 Y4.600000 E81.874286
G1 X4.200000 Y4.200000
G1 X15.000000 Y4.200000 E84.342857
G1 X3.800000 Y3.800000
G1 X15.000000 Y3.800000 E86.902857
G1 X3.400000 Y3.400000
G1 X15.000000 Y3.400000 E89.554286
G1 X3.000000 Y3.000000
G1 X15.000000 Y3.000000 E92.297143
G1 X2.600000 Y2.600000
G1 X15.000000 Y2.600000 E95.131429
G1 X2.200000 Y2.200000
G1 X15.000000 Y2.200000 E98.057143
G1 X1.800000 Y1.800000
G1 X15.000000 Y1.800000 E101.074286
G1 X1.400000 Y1.400000
G1 X15.000000 Y1.400000 E104.182857
G1 X1.000000 Y1.000000
G1 X15.000000 Y1.000000 E107.382857
G1 X0.600000 Y0.600000
G1 X15.000000 Y0.600000 E110.674286
G1 X0.200000 Y0.200000
G1 X15.000000 Y0.200000 E114.057143
; Parallel rasterized triangle on layer 0.0
G1 X0.000000 Y0.000000
G1 X0.000000 Y0.000000 E114.057143
G1 X0.400000 Y0.400000
G1 X0.000000 Y0.400000 E114.148571
G1 X0.800000 Y0.800000
G1 X0.000000 Y0.800000 E114.331429
G1 X1.200000 Y1.200000
G1 X0.000000 Y1.200000 E114.605714
G1 X1.600000 Y1.600000
G1 X0.000000 Y1.600000 E114.971429
G1 X2.000000 Y2.000000
G1 X0.000000 Y2.000000 E115.428571
G1 X2.400000 Y2.400000
G1 X0.000000 Y2.400000 E115.977143
G1 X2.800000 Y2.800000
G1 X0.000000 Y2.800000 E116.617143
G1 X3.200000 Y3.200000
G1 X0.000000 Y3.200000 E117.348571
G1 X3.600000 Y3.600000
G1 X0.000000 Y3.600000 E118.171429
G1 X4.000000 Y4.000000
G1 X0.000000 Y4.000000 E119.085714
G1 X4.400000 Y4.400000
G1 X0.000000 Y4.400000 E120.091429
G1 X4.800000 Y4.800000
G1 X0.000000 Y4.800000 E121.188571
G1 X5.200000 Y5.200000
G1 X0.000000 Y5.200000 E122.377143
G1 X5.600000 Y5.600000
G1 X0.000000 Y5.600000 E123.657143
G1 X6.000000 Y6.000000
G1 X0.000000 Y6.000000 E125.028571
G1 X6.400000 Y6.400000
G1 X0.000000 Y6.400000 E126.491429
G1 X6.800000 Y6.800000
G1 X0.000000 Y6.800000 E128.045714
G1 X7.200000 Y7.200000
G1 X0.000000 Y7.200000 E129.691429
G1 X7.600000 Y7.600000
G1 X0.000000 Y7.600000 E131.428571
G1 X8.000000 Y8.000000
G1 X0.000000 Y8.000000 E133.257143
G1 X8.400000 Y8.400000
G1 X0.000000 Y8.400000 E135.177143
G1 X8.800000 Y8.800000
G1 X0.000000 Y8.800000 E137.188571
G1 X9.200000 Y9.200000
G1 X0.000000 Y9.200000 E139.291429
G1 X9.600000 Y9.600000
G1 X0.000000 Y9.600000 E141.485714
G1 X10.000000 Y10.000000
G1 X0.000000 Y10.000000 E143.771429
G1 X10.400000 Y10.400000
G1 X0.000000 Y10.400000 E146.148571
G1 X10.800000 Y10.800000
G1 X0.000000 Y10.800000 E148.617143
G1 X11.200000 Y11.200000
G1 X0.000000 Y11.200000 E151.177143
G1 X11.600000 Y11.600000
G1 X0.000000 Y11.600000 E153.828571
G1 X12.000000 Y12.000000
G1 X0.000000 Y12.000000 E156.571429
G1 X12.400000 Y12.400000
G1 X0.000000 Y12.400000 E159.405714
G1 X12.800000 Y12.800000
G1 X0.000000 Y12.800000 E162.331429
G1 X13.200000 Y13.200000
G1 X0.000000 Y13.200000 E165.348571
G1 X13.600000 Y13.600000
G1 X0.000000 Y13.600000 E168.457143
G1 X14.000000 Y14.000000
G1 X0.000000 Y14.000000 E171.657143
G1 X14.400000 Y14.400000
G1 X0.000000 Y14.400000 E174.948571
G1 X14.800000 Y14.800000
G1 X0.000000 Y14.800000 E178.331429
; LAYER Z=0.190000
G1 Z0.190000 ; raise print head
; PERIMETER 0
G1 X0.190000 Y0.000000
G1 X0.000000 Y0.000000 E178.374857
G1 X0.000000 Y0.190000 E178.418286
G1 X0.000000 Y15.000000 E181.803429
G1 X14.810000 Y15.000000 E185.188571
G1 X15.000000 Y15.000000 E185.232000
G1 X15.000000 Y14.810000 E185.275429
G1 X15.000000 Y0.000000 E188.660571
G1 X0.190000 Y0.000000 E192.045714
G1 X0.190000 Y0.400000
G1 X0.200000 Y0.200000 E192.091486
G1 X0.400000 Y0.190000 E192.137257
G1 X0.200000 Y14.800000 E195.476999
G1 X14.810000 Y14.600000 E198.816740
G1 X14.800000 Y14.800000 E198.862511
G1 X14.600000 Y14.810000 E198.908283
G1 X14.800000 Y0.200000 E202.248024
G1 X0.190000 Y0.400000 E205.587766
; INFILL
; NEW INFILL LINE
G1 X0.744483 Y2.190000
G1 X14.550 Y2.190 E208.74338
; NEW INFILL LINE
G1 X0.688966 Y4.190000
G1 X14.495 Y4.190 E211.89900
; NEW INFILL LINE
G1 X0.633449 Y6.190000
G1 X14.439 Y6.190 E215.05462
; NEW INFILL LINE
G1 X0.577932 Y8.190000
G1 X14.384 Y8.190 E218.21024
; NEW INFILL LINE
G1 X0.522415 Y10.190000
G1 X14.328 Y10.190 E221.36586
; NEW INFILL LINE
G1 X0.466898 Y12.190000
G1 X14.273 Y12.190 E224.52147
; NEW INFILL LINE
G1 X0.411381 Y14.190000
G1 X14.217 Y14.190 E227.67709
; LAYER Z=0.380000
G1 Z0.380000 ; raise print head
; PERIMETER 0
G1 X0.380000 Y0.000000
G1 X0.000000 Y0.000000 E227.763950
G1 X0.000000 Y0.380000 E227.850807
G1 X0.000000 Y15.000000 E231.192521
G1 X14.620000 Y15.000000 E234.534235
G1 X15.000000 Y15.000000 E234.621093
G1 X15.000000 Y14.620000 E234.707950
G1 X15.000000 Y0.000000 E238.049664
G1 X0.380000 Y0.000000 E241.391378
G1 X0.380000 Y0.400000
G1 X0.200000 Y0.200000 E241.452881
G1 X0.400000 Y0.380000 E241.514383
G1 X0.200000 Y14.800000 E244.810700
G1 X14.620000 Y14.600000 E248.107017
G1 X14.800000 Y14.800000 E248.168519
G1 X14.600000 Y14.620000 E248.230021
G1 X14.800000 Y0.200000 E251.526338
G1 X0.380000 Y0.400000 E254.822655
; INFILL
; NEW INFILL LINE
G1 X0.743741 Y2.380000
G1 X14.544 Y2.380 E257.97707
; NEW INFILL LINE
G1 X0.687482 Y4.380000
G1 X14.488 Y4.380 E261.13148
; NEW INFILL LINE
G1 X0.631224 Y6.380000
G1 X14.432 Y6.380 E264.28590
; NEW INFILL LINE
G1 X0.574965 Y8.380000
G1 X14.376 Y8.380 E267.44031
; NEW INFILL LINE
G1 X0.518706 Y10.380000
G1 X14.319 Y10.380 E270.59473
; NEW INFILL LINE
G1 X0.462447 Y12.380000
G1 X14.263 Y12.380 E273.74914
; NEW INFILL LINE
G1 X0.406188 Y14.380000
G1 X8.221 Y14.380 E275.53538
G1 X14.207 Y14.380
G1 X14.611 Y14.380 E275.62778
; LAYER Z=0.570000
G1 Z0.570000 ; raise print head
; PERIMETER 0
G1 X0.570000 Y0.000000
G1 X0.000000 Y0.000000 E275.758069
G1 X0.000000 Y0.570000 E275.888355
G1 X0.000000 Y15.000000 E279.186641
G1 X14.430000 Y15.000000 E282.484926
G1 X15.000000 Y15.000000 E282.615212
G1 X15.000000 Y14.430000 E282.745498
G1 X15.000000 Y0.000000 E286.043784
G1 X0.570000 Y0.000000 E289.342069
G1 X0.570000 Y0.400000
G1 X0.200000 Y0.200000 E289.438205
G1 X0.400000 Y0.570000 E289.534341
G1 X0.200000 Y14.800000 E292.787234
G1 X14.430000 Y14.600000 E296.040127
G1 X14.800000 Y14.800000 E296.136263
G1 X14.600000 Y14.430000 E296.232398
G1 X14.800000 Y0.200000 E299.485291
G1 X0.570000 Y0.400000 E302.738184
; INFILL
; NEW INFILL LINE
G1 X0.747826 Y2.400000
G1 X14.543 Y2.400 E305.89136
; NEW INFILL LINE
G1 X0.690805 Y4.400000
G1 X14.486 Y4.400 E309.04454
; NEW INFILL LINE
G1 X0.633785 Y6.400000
G1 X14.429 Y6.400 E312.19772
; NEW INFILL LINE
G1 X0.576764 Y8.400000
G1 X14.372 Y8.400 E315.35090
; NEW INFILL LINE
G1 X0.519743 Y10.400000
G1 X14.315 Y10.400 E318.50407
; NEW INFILL LINE
G1 X0.462723 Y12.400000
G1 X14.258 Y12.400 E321.65725
; NEW INFILL LINE
G1 X0.405702 Y14.400000
G1 X7.415 Y14.400 E323.25938
G1 X14.201 Y14.400
G1 X14.515 Y14.400 E323.33118
; LAYER Z=0.760000
G1 Z0.760000 ; raise print head
; PERIMETER 0
G1 X0.000000 Y0.000000
G1 X0.760000 Y0.000000 E323.504895
G1 X15.000000 Y0.000000 E326.759752
G1 X15.000000 Y14.240000 E330.014609
G1 X15.000000 Y15.000000 E330.188324
G1 X14.240000 Y15.000000 E330.362038
G1 X0.000000 Y15.000000 E333.616895
G1 X0.000000 Y0.760000 E336.871752
G1 X0.000000 Y0.000000 E337.045467
G1 X0.200000 Y0.200000
G1 X0.760000 Y0.400000 E337.181385
G1 X14.800000 Y0.200000 E340.390853
G1 X14.600000 Y14.240000 E343.600322
G1 X14.800000 Y14.800000 E343.736240
G1 X14.240000 Y14.600000 E343.872158
G1 X0.200000 Y14.800000 E347.081627
G1 X0.400000 Y0.760000 E350.291095
G1 X0.200000 Y0.200000 E350.427014
; INFILL
; NEW INFILL LINE
G1 X0.752601 Y2.400000
G1 X14.542 Y2.400 E353.57892
; NEW INFILL LINE
G1 X0.694798 Y4.400000
G1 X14.484 Y4.400 E356.73083
; NEW INFILL LINE
G1 X0.636994 Y6.400000
G1 X14.427 Y6.400 E359.88274
; NEW INFILL LINE
G1 X0.579191 Y8.400000
G1 X14.369 Y8.400 E363.03464
; NEW INFILL LINE
G1 X0.521387 Y10.400000
G1 X14.311 Y10.400 E366.18655
; NEW INFILL LINE
G1 X0.463584 Y12.400000
G1 X14.253 Y12.400 E369.33846
; NEW INFILL LINE
G1 X0.405780 Y14.400000
G1 X7.320 Y14.400 E370.91885
G1 X14.378 Y14.400
G1 X14.420 Y14.400 E370.92850
; LAYER Z=0.950000
G1 Z0.950000 ; raise print head
; PERIMETER 0
G1 X0.950000 Y0.000000
G1 X0.000000 Y0.000000 E371.145646
G1 X0.000000 Y0.950000 E371.362788
G1 X0.000000 Y15.000000 E374.574217
G1 X14.050000 Y15.000000 E377.785646
G1 X15.000000 Y15.000000 E378.002788
G1 X15.000000 Y14.050000 E378.219931
G1 X15.000000 Y0.000000 E381.431360
G1 X0.950000 Y0.000000 E384.642788
G1 X0.950000 Y0.400000
G1 X0.200000 Y0.200000 E384.820208
G1 X0.400000 Y0.950000 E384.997627
G1 X0.200000 Y14.800000 E388.163671
G1 X14.050000 Y14.600000 E391.329715
G1 X14.800000 Y14.800000 E391.507134
G1 X14.600000 Y14.050000 E391.684554
G1 X14.800000 Y0.200000 E394.850598
G1 X0.950000 Y0.400000 E398.016642
; INFILL
; NEW INFILL LINE
G1 X0.757509 Y2.400000
G1 X14.541 Y2.400 E401.16724
; NEW INFILL LINE
G1 X0.698901 Y4.400000
G1 X14.483 Y4.400 E404.31785
; NEW INFILL LINE
G1 X0.640293 Y6.400000
G1 X14.424 Y6.400 E407.46845
; NEW INFILL LINE
G1 X0.581685 Y8.400000
G1 X14.366 Y8.400 E410.61905
; NEW INFILL LINE
G1 X0.523077 Y10.400000
G1 X14.307 Y10.400 E413.76965
; NEW INFILL LINE
G1 X0.464469 Y12.400000
G1 X14.248 Y12.400 E416.92025
; NEW INFILL LINE
G1 X0.405861 Y14.400000
G1 X7.225 Y14.400 E418.47891
G1 X14.325 Y14.400
G1 X14.455 Y14.400 E418.50852
; LAYER Z=1.140000
G1 Z1.140000 ; raise print head
; PERIMETER 0
G1 X0.000000 Y0.000000
G1 X1.140000 Y0.000000 E418.769095
G1 X15.000000 Y0.000000 E421.937095
G1 X15.000000 Y13.860000 E425.105095
G1 X15.000000 Y15.000000 E425.365667
G1 X13.860000 Y15.000000 E425.626238
G1 X0.000000 Y15.000000 E428.794238
G1 X0.000000 Y1.140000 E431.962238
G1 X0.000000 Y0.000000 E432.222809
G1 X0.200000 Y0.200000
G1 X1.140000 Y0.400000 E432.442476
G1 X14.800000 Y0.200000 E435.565096
G1 X14.600000 Y13.860000 E438.687717
G1 X14.800000 Y14.800000 E438.907383
G1 X13.860000 Y14.600000 E439.127050
G1 X0.200000 Y14.800000 E442.249670
G1 X0.400000 Y1.140000 E445.372290
G1 X0.200000 Y0.200000 E445.591957
; INFILL
; NEW INFILL LINE
G1 X0.762556 Y2.400000
G1 X14.541 Y2.400 E448.74122
; NEW INFILL LINE
G1 X0.703120 Y4.400000
G1 X14.481 Y4.400 E451.89048
; NEW INFILL LINE
G1 X0.643685 Y6.400000
G1 X14.422 Y6.400 E455.03973
; NEW INFILL LINE
G1 X0.584250 Y8.400000
G1 X14.362 Y8.400 E458.18899
; NEW INFILL LINE
G1 X0.524814 Y10.400000
G1 X14.303 Y10.400 E461.33825
; NEW INFILL LINE
G1 X0.465379 Y12.400000
G1 X14.243 Y12.400 E464.48751
; NEW INFILL LINE
G1 X0.405944 Y14.400000
G1 X7.130 Y14.400 E466.02444
G1 X14.230 Y14.400
G1 X14.492 Y14.400 E466.08430
; LAYER Z=1.330000
G1 Z1.330000 ; raise print head
; PERIMETER 0
G1 X1.330000 Y0.000000
G1 X0.000000 Y0.000000 E466.388300
G1 X0.000000 Y1.330000 E466.692300
G1 X0.000000 Y15.000000 E469.816872
G1 X13.670000 Y15.000000 E472.941443
G1 X15.000000 Y15.000000 E473.245443
G1 X15.000000 Y13.670000 E473.549443
G1 X15.000000 Y0.000000 E476.674015
G1 X1.330000 Y0.000000 E479.798586
G1 X1.330000 Y0.400000
G1 X0.200000 Y0.200000 E480.060886
G1 X0.400000 Y1.330000 E480.323186
G1 X0.200000 Y14.800000 E483.402383
G1 X13.670000 Y14.600000 E486.481579
G1 X14.800000 Y14.800000 E486.743879
G1 X14.600000 Y13.670000 E487.006179
G1 X14.800000 Y0.200000 E490.085376
G1 X1.330000 Y0.400000 E493.164572
; INFILL
; NEW INFILL LINE
G1 X0.767747 Y2.400000
G1 X14.540 Y2.400 E496.31245
; NEW INFILL LINE
G1 X0.707460 Y4.400000
G1 X14.479 Y4.400 E499.46033
; NEW INFILL LINE
G1 X0.647174 Y6.400000
G1 X14.419 Y6.400 E502.60821
; NEW INFILL LINE
G1 X0.586888 Y8.400000
G1 X14.359 Y8.400 E505.75608
; NEW INFILL LINE
G1 X0.526601 Y10.400000
G1 X14.299 Y10.400 E508.90396
; NEW INFILL LINE
G1 X0.466315 Y12.400000
G1 X14.238 Y12.400 E512.05184
; NEW INFILL LINE
G1 X0.406029 Y14.400000
G1 X7.035 Y14.400 E513.56703
G1 X14.135 Y14.400
G1 X14.514 Y14.400 E513.65366
; LAYER Z=1.520000
G1 Z1.520000 ; raise print head
; PERIMETER 0
G1 X1.520000 Y0.000000
G1 X0.000000 Y0.000000 E514.001087
G1 X0.000000 Y1.520000 E514.348515
G1 X0.000000 Y15.000000 E517.429658
G1 X13.480000 Y15.000000 E520.510801
G1 X15.000000 Y15.000000 E520.858229
G1 X15.000000 Y13.480000 E521.205658
G1 X15.000000 Y0.000000 E524.286801
G1 X1.520000 Y0.000000 E527.367944
G1 X1.520000 Y0.400000
G1 X0.200000 Y0.200000 E527.673102
G1 X0.400000 Y1.520000 E527.978259
G1 X0.200000 Y14.800000 E531.014032
G1 X13.480000 Y14.600000 E534.049805
G1 X14.800000 Y14.800000 E534.354963
G1 X14.600000 Y13.480000 E534.660121
G1 X14.800000 Y0.200000 E537.695893
G1 X1.520000 Y0.400000 E540.731666
; INFILL
; NEW INFILL LINE
G1 X0.773089 Y2.400000
G1 X14.539 Y2.400 E543.87812
; NEW INFILL LINE
G1 X0.711927 Y4.400000
G1 X14.478 Y4.400 E547.02458
; NEW INFILL LINE
G1 X0.650765 Y6.400000
G1 X14.417 Y6.400 E550.17104
; NEW INFILL LINE
G1 X0.589602 Y8.400000
G1 X14.355 Y8.400 E553.31749
; NEW INFILL LINE
G1 X0.528440 Y10.400000
G1 X14.294 Y10.400 E556.46395
; NEW INFILL LINE
G1 X0.467278 Y12.400000
G1 X14.233 Y12.400 E559.61041
; NEW INFILL LINE
G1 X0.406116 Y14.400000
G1 X6.940 Y14.400 E561.10387
G1 X14.040 Y14.400
G1 X14.529 Y14.400 E561.21554
; LAYER Z=1.710000
G1 Z1.710000 ; raise print head
; PERIMETER 0
G1 X1.710000 Y0.000000
