; generated by Slic3r 1.2.9 on 2016-04-25 at 01:07:22

; external perimeters extrusion width = 0.40mm
; perimeters extrusion width = 0.67mm
; infill extrusion width = 0.67mm
; solid infill extrusion width = 0.67mm
; top infill extrusion width = 0.67mm

M107
M104 S215 ; set temperature
G28 ; home all axes
G1 Z5 F5000 ; lift nozzle

M109 S215 ; wait for temperature to be reached
G21 ; set units to millimeters
G90 ; use absolute coordinates
M82 ; use absolute distances for extrusion
G92 E0
G1 Z0.400 F7800.000
G1 E-2.00000 F2400.00000
G92 E0
G1 X62.327 Y63.220 F7800.000
G1 E2.00000 F2400.00000
G1 X64.083 Y61.720 E2.27422 F1800.000
G1 X66.243 Y60.905 E2.54845
G1 X67.500 Y60.786 E2.69842
G1 X82.500 Y60.786 E4.47989
G1 X84.775 Y61.183 E4.75412
G1 X86.780 Y62.327 E5.02834 F1800.000
G1 X88.280 Y64.083 E5.30257
G1 X89.095 Y66.243 E5.57679
G1 X89.214 Y67.500 E5.72676
G1 X89.214 Y82.500 E7.50824
G1 X88.817 Y84.775 E7.78246
G1 X87.673 Y86.780 E8.05669
G1 X85.917 Y88.280 E8.33091
G1 X83.757 Y89.095 E8.60514
G1 X82.500 Y89.214 E8.75510
G1 X67.500 Y89.214 E10.53658
G1 X65.225 Y88.817 E10.81081
G1 X63.220 Y87.673 E11.08503
G1 X61.720 Y85.917 E11.35926
G1 X60.905 Y83.757 E11.63348
G1 X60.786 Y82.500 E11.78345
G1 X60.786 Y67.500 E13.56492
G1 X61.183 Y65.225 E13.83915
G1 X62.297 Y63.272 E14.10625
G1 E12.10625 F2400.00000
G92 E0
G1 X80.672 Y80.672 F7800.000
G1 E2.00000 F2400.00000
G1 X69.328 Y80.672 E3.34720 F1800.000
G1 X69.328 Y69.328 E4.69439
G1 X80.672 Y69.328 E6.04159
G1 X80.672 Y80.612 E7.38166
G1 X81.386 Y81.386 F7800.000
G1 X68.614 Y81.386 E8.89849 F1800.000
G1 X68.614 Y68.614 E10.41532
G1 X81.386 Y68.614 E11.93215
G1 X81.386 Y81.326 E13.44186
G1 X82.100 Y82.100 F7800.000
G1 X67.900 Y82.100 E15.12833 F1800.000
G1 X67.900 Y67.900 E16.81479
G1 X82.100 Y67.900 E18.50126
G1 X82.100 Y82.040 E20.18060
G1 X81.754 Y81.900 F7800.000
G1 X80.236 Y70.107 F7800.000
G1 X79.893 Y69.764 E20.23837 F1800.000
G1 X78.880 Y69.764 E20.35903
G1 X80.236 Y71.120 E20.58744
G1 X80.236 Y72.133 E20.70809
G1 X77.867 Y69.764 E21.10713
G1 X76.854 Y69.764 E21.22778
G1 X80.236 Y73.146 E21.79745
G1 X80.236 Y74.159 E21.91810
G1 X75.841 Y69.764 E22.65840
G1 X74.828 Y69.764 E22.77906
G1 X80.236 Y75.171 E23.68999
G1 X80.236 Y76.184 E23.81064
G1 X73.816 Y69.764 E24.89220
G1 X72.803 Y69.764 E25.01285
G1 X80.236 Y77.197 E26.26504
G1 X80.236 Y78.210 E26.38570
G1 X71.790 Y69.764 E27.80852
G1 X70.777 Y69.764 E27.92917
G1 X80.236 Y79.223 E29.52262
G1 X80.216 Y80.216 E29.64091
G1 X69.784 Y69.784 E31.39826
G1 X69.764 Y70.777 E31.51655
G1 X79.223 Y80.236 E33.11000
G1 X78.210 Y80.236 E33.23066
G1 X69.764 Y71.790 E34.65347
G1 X69.764 Y72.803 E34.77413
G1 X77.197 Y80.236 E36.02632
G1 X76.184 Y80.236 E36.14697
G1 X69.764 Y73.816 E37.22853
G1 X69.764 Y74.829 E37.34918
G1 X75.171 Y80.236 E38.26011
G1 X74.159 Y80.236 E38.38076
G1 X69.764 Y75.841 E39.12106
G1 X69.764 Y76.854 E39.24171
G1 X73.146 Y80.236 E39.81138
G1 X72.133 Y80.236 E39.93204
G1 X69.764 Y77.867 E40.33107
G1 X69.764 Y78.880 E40.45173
G1 X71.120 Y80.236 E40.68013
G1 X70.107 Y80.236 E40.80079
G1 X69.764 Y79.893 E40.85856
M104 S210 ; set temperature
G1 Z0.600 F7800.000
G1 X81.179 Y81.179 F7800.000
G1 X68.821 Y81.179 E41.50420 F3600.000
G1 X68.821 Y68.821 E42.14984
G1 X81.179 Y68.821 E42.79548
G1 X81.179 Y81.119 E43.43799
G1 X81.807 Y81.807 F7800.000
G1 X68.193 Y81.807 E44.14928 F3600.000
G1 X68.193 Y68.193 E44.86058
G1 X81.807 Y68.193 E45.57187
G1 X81.807 Y81.747 E46.28003
G1 X82.300 Y82.300 F7800.000
G1 X67.700 Y82.300 E46.71352 F1800.000
G1 X67.700 Y67.700 E47.14702
G1 X82.300 Y67.700 E47.58051
G1 X82.300 Y82.240 E48.01222
G1 X81.954 Y82.100 F7800.000
G1 X80.492 Y80.798 F7800.000
G1 X80.798 Y80.492 E48.03524 F1200.000
G1 X80.798 Y79.588 E48.08321
G1 X79.588 Y80.798 E48.17406
G1 X78.685 Y80.798 E48.22202
G1 X80.798 Y78.685 E48.38071
G1 X80.798 Y77.782 E48.42867
G1 X77.782 Y80.798 E48.65518
G1 X76.879 Y80.798 E48.70315
G1 X80.798 Y76.879 E48.99749
G1 X80.798 Y75.976 E49.04546
G1 X75.976 Y80.798 E49.40763
G1 X75.072 Y80.798 E49.45559
G1 X80.798 Y75.073 E49.88560
G1 X80.798 Y74.169 E49.93356
G1 X74.169 Y80.798 E50.43139
G1 X73.266 Y80.798 E50.47936
G1 X80.798 Y73.266 E51.04502
G1 X80.798 Y72.363 E51.09298
G1 X72.363 Y80.798 E51.72648
G1 X71.460 Y80.798 E51.77444
G1 X80.798 Y71.460 E52.47577
G1 X80.798 Y70.557 E52.52373
G1 X70.557 Y80.798 E53.29288
G1 X69.653 Y80.798 E53.34085
G1 X80.798 Y69.653 E54.17783
G1 X80.347 Y69.202 E54.21175
G1 X69.202 Y80.347 E55.04873
G1 X69.202 Y79.443 E55.09669
G1 X79.443 Y69.202 E55.86584
G1 X78.540 Y69.202 E55.91381
G1 X69.202 Y78.540 E56.61513
G1 X69.202 Y77.637 E56.66309
G1 X77.637 Y69.202 E57.29659
G1 X76.734 Y69.202 E57.34455
G1 X69.202 Y76.734 E57.91021
G1 X69.202 Y75.831 E57.95817
G1 X75.831 Y69.202 E58.45601
G1 X74.927 Y69.202 E58.50397
G1 X69.202 Y74.927 E58.93397
G1 X69.202 Y74.024 E58.98194
G1 X74.024 Y69.202 E59.34411
G1 X73.121 Y69.202 E59.39207
G1 X69.202 Y73.121 E59.68641
G1 X69.202 Y72.218 E59.73438
G1 X72.218 Y69.202 E59.96089
G1 X71.315 Y69.202 E60.00885
G1 X69.202 Y71.315 E60.16753
G1 X69.202 Y70.412 E60.21550
G1 X70.412 Y69.202 E60.30635
G1 X69.508 Y69.202 E60.35431
G1 X69.202 Y69.508 E60.37734
G1 Z0.800 F7800.000
G1 X81.179 Y81.179 F7800.000
G1 X68.821 Y81.179 E61.02298 F3600.000
G1 X68.821 Y68.821 E61.66862
G1 X81.179 Y68.821 E62.31426
G1 X81.179 Y81.119 E62.95676
G1 X81.807 Y81.807 F7800.000
G1 X68.193 Y81.807 E63.66806 F3600.000
G1 X68.193 Y68.193 E64.37935
G1 X81.807 Y68.193 E65.09064
G1 X81.807 Y81.747 E65.79880
G1 X82.300 Y82.300 F7800.000
G1 X67.700 Y82.300 E66.23230 F1800.000
G1 X67.700 Y67.700 E66.66579
G1 X82.300 Y67.700 E67.09928
G1 X82.300 Y82.240 E67.53099
G1 X81.954 Y82.100 F7800.000
G1 X80.798 Y69.508 F7800.000
G1 X80.492 Y69.202 E67.55402 F1200.000
G1 X79.588 Y69.202 E67.60198
G1 X80.798 Y70.412 E67.69283
G1 X80.798 Y71.315 E67.74080
G1 X78.685 Y69.202 E67.89948
G1 X77.782 Y69.202 E67.94744
G1 X80.798 Y72.218 E68.17396
G1 X80.798 Y73.121 E68.22192
G1 X76.879 Y69.202 E68.51626
G1 X75.976 Y69.202 E68.56423
G1 X80.798 Y74.024 E68.92640
G1 X80.798 Y74.927 E68.97436
G1 X75.073 Y69.202 E69.40437
G1 X74.169 Y69.202 E69.45233
G1 X80.798 Y75.831 E69.95017
G1 X80.798 Y76.734 E69.99813
G1 X73.266 Y69.202 E70.56379
G1 X72.363 Y69.202 E70.61176
G1 X80.798 Y77.637 E71.24525
G1 X80.798 Y78.540 E71.29321
G1 X71.460 Y69.202 E71.99454
G1 X70.557 Y69.202 E72.04250
G1 X80.798 Y79.443 E72.81166
G1 X80.798 Y80.347 E72.85962
G1 X69.653 Y69.202 E73.69660
G1 X69.202 Y69.653 E73.73052
G1 X80.347 Y80.798 E74.56750
G1 X79.443 Y80.798 E74.61546
G1 X69.202 Y70.557 E75.38462
G1 X69.202 Y71.460 E75.43258
G1 X78.540 Y80.798 E76.13390
G1 X77.637 Y80.798 E76.18187
G1 X69.202 Y72.363 E76.81536
G1 X69.202 Y73.266 E76.86332
G1 X76.734 Y80.798 E77.42898
G1 X75.831 Y80.798 E77.47695
G1 X69.202 Y74.169 E77.97478
G1 X69.202 Y75.073 E78.02274
G1 X74.927 Y80.798 E78.45275
G1 X74.024 Y80.798 E78.50071
G1 X69.202 Y75.976 E78.86288
G1 X69.202 Y76.879 E78.91084
G1 X73.121 Y80.798 E79.20519
G1 X72.218 Y80.798 E79.25315
G1 X69.202 Y77.782 E79.47966
G1 X69.202 Y78.685 E79.52763
G1 X71.315 Y80.798 E79.68631
G1 X70.412 Y80.798 E79.73427
G1 X69.202 Y79.588 E79.82512
G1 X69.202 Y80.492 E79.87309
G1 X69.508 Y80.798 E79.89611
M106 S255
G1 Z1.000 F7800.000
G1 X81.179 Y81.179 F7800.000
G1 X68.821 Y81.179 E80.54175 F3285.551
G1 X68.821 Y68.821 E81.18739
G1 X81.179 Y68.821 E81.83303
G1 X81.179 Y81.119 E82.47554
G1 X81.807 Y81.807 F7800.000
G1 X68.193 Y81.807 E83.18683 F3285.551
G1 X68.193 Y68.193 E83.89812
G1 X81.807 Y68.193 E84.60942
G1 X81.807 Y81.747 E85.31758
G1 X82.300 Y82.300 F7800.000
G1 X67.700 Y82.300 E85.75107 F1642.776
G1 X67.700 Y67.700 E86.18456
G1 X82.300 Y67.700 E86.61805
G1 X82.300 Y82.240 E87.04977
G1 X81.954 Y82.100 F7800.000
G1 X80.645 Y77.060 F7800.000
G1 X78.939 Y76.603 E87.14204 F4380.735
G1 X76.117 Y79.425 E87.35052
G1 X76.444 Y80.645 E87.41651
G1 X80.645 Y80.645 E87.63598
G1 X80.645 Y77.060 E87.82325
G1 X80.645 Y70.556 F7800.000
G1 X80.645 Y69.355 E87.88597 F4380.735
G1 X79.924 Y69.355 E87.92364
G1 X80.121 Y70.090 E87.96338
G1 X77.299 Y72.911 E88.17186
G1 X74.496 Y72.160 E88.32348
G1 X71.674 Y74.982 E88.53195
G1 X72.425 Y77.785 E88.68357
G1 X69.604 Y80.607 E88.89205
G1 X69.355 Y80.540 E88.90551
G1 X69.355 Y80.645 E88.91098
G1 X70.454 Y80.645 E88.96841
G1 X72.870 Y78.229 E89.14688
G1 X75.673 Y78.981 E89.29850
G1 X78.495 Y76.159 E89.50697
G1 X77.743 Y73.356 E89.65859
G1 X80.565 Y70.534 E89.86707
G1 X80.645 Y70.556 E89.87138
G1 X74.052 Y71.716 F7800.000
G1 X73.419 Y69.355 E89.99909 F4380.735
G1 X69.355 Y69.355 E90.21141
G1 X69.355 Y74.035 E90.45593
G1 X71.230 Y74.538 E90.55734
G1 X74.052 Y71.716 E90.76582
G1 Z1.200 F7800.000
G1 X81.179 Y81.179 F7800.000
G1 X68.821 Y81.179 E91.41146 F3360.162
G1 X68.821 Y68.821 E92.05710
G1 X81.179 Y68.821 E92.70274
G1 X81.179 Y81.119 E93.34525
G1 X81.807 Y81.807 F7800.000
G1 X68.193 Y81.807 E94.05654 F3360.162
G1 X68.193 Y68.193 E94.76783
G1 X81.807 Y68.193 E95.47913
G1 X81.807 Y81.747 E96.18729
G1 X82.300 Y82.300 F7800.000
G1 X67.700 Y82.300 E96.62078 F1680.081
G1 X67.700 Y67.700 E97.05427
G1 X82.300 Y67.700 E97.48776
G1 X82.300 Y82.240 E97.91948
G1 X81.954 Y82.100 F7800.000
G1 X79.958 Y70.697 F7800.000
G1 X77.906 Y72.749 E98.07109 F4480.216
G1 X78.939 Y76.603 E98.27957
G1 X80.645 Y77.060 E98.37185
G1 X80.645 Y80.645 E98.55912
G1 X76.769 Y80.645 E98.76160
G1 X76.280 Y78.818 E98.86041
G1 X78.332 Y76.766 E99.01203
G1 X77.299 Y72.911 E99.22051
G1 X74.496 Y72.160 E99.37213
G1 X73.744 Y69.355 E99.52386
G1 X79.599 Y69.355 E99.82972
G1 X79.958 Y70.697 E99.90229
G1 X80.645 Y70.556 F7800.000
G1 X80.565 Y70.534 E99.90661 F4480.216
G1 X80.249 Y69.355 E99.97038
G1 X80.645 Y69.355 E99.99106
G1 X80.645 Y70.556 E100.05378
G1 X73.889 Y72.323 F7800.000
G1 X71.837 Y74.375 E100.20540 F4480.216
G1 X72.870 Y78.229 E100.41387
G1 X75.673 Y78.981 E100.56549
G1 X76.119 Y80.645 E100.65551
G1 X70.265 Y80.645 E100.96137
G1 X70.211 Y80.444 E100.97223
G1 X72.263 Y78.392 E101.12385
G1 X71.230 Y74.538 E101.33233
G1 X69.355 Y74.035 E101.43374
G1 X69.355 Y69.355 E101.67826
G1 X73.094 Y69.355 E101.87359
G1 X73.889 Y72.323 E102.03412
G1 X69.604 Y80.607 F7800.000
G1 X69.614 Y80.645 E102.03618 F4480.216
G1 X69.355 Y80.645 E102.04971
G1 X69.355 Y80.540 E102.05519
G1 X69.604 Y80.607 E102.06865
G1 Z1.400 F7800.000
G1 X81.179 Y81.179 F7800.000
G1 X68.821 Y81.179 E102.71429 F3354.214
G1 X68.821 Y68.821 E103.35993
G1 X81.179 Y68.821 E104.00557
G1 X81.179 Y81.119 E104.64807
G1 X81.807 Y81.807 F7800.000
G1 X68.193 Y81.807 E105.35937 F3354.214
G1 X68.193 Y68.193 E106.07066
G1 X81.807 Y68.193 E106.78195
G1 X81.807 Y81.747 E107.49011
G1 X82.300 Y82.300 F7800.000
G1 X67.700 Y82.300 E107.92361 F1677.107
G1 X67.700 Y67.700 E108.35710
G1 X82.300 Y67.700 E108.79059
G1 X82.300 Y82.240 E109.22230
G1 X81.954 Y82.100 F7800.000
G1 X80.645 Y70.230 F7800.000
G1 X80.121 Y70.090 E109.25065 F4472.286
G1 X79.924 Y69.355 E109.29040
G1 X80.645 Y69.355 E109.32807
G1 X80.645 Y70.230 E109.37379
G1 X74.052 Y71.716 F7800.000
G1 X77.906 Y72.749 E109.58227 F4472.286
G1 X79.958 Y70.697 E109.73389
G1 X80.645 Y70.881 E109.77103
G1 X80.645 Y76.735 E110.07689
G1 X78.495 Y76.159 E110.19320
G1 X77.743 Y73.356 E110.34482
G1 X73.889 Y72.323 E110.55330
G1 X71.837 Y74.375 E110.70491
G1 X69.355 Y73.710 E110.83916
G1 X69.355 Y69.355 E111.06668
G1 X73.419 Y69.355 E111.27900
G1 X74.052 Y71.716 E111.40671
G1 X71.674 Y74.982 F7800.000
G1 X72.425 Y77.785 E111.55833 F4472.286
G1 X76.280 Y78.818 E111.76680
G1 X78.332 Y76.766 E111.91842
G1 X80.645 Y77.386 E112.04352
G1 X80.645 Y80.645 E112.21380
G1 X76.444 Y80.645 E112.43327
G1 X76.117 Y79.425 E112.49926
G1 X72.263 Y78.392 E112.70774
G1 X70.211 Y80.444 E112.85936
G1 X69.355 Y80.215 E112.90564
G1 X69.355 Y74.361 E113.21150
G1 X71.674 Y74.982 E113.33695
G1 Z1.600 F7800.000
G1 X81.179 Y81.179 F7800.000
G1 X68.821 Y81.179 E113.98259 F3285.551
G1 X68.821 Y68.821 E114.62823
G1 X81.179 Y68.821 E115.27387
G1 X81.179 Y81.119 E115.91637
G1 X81.807 Y81.807 F7800.000
G1 X68.193 Y81.807 E116.62767 F3285.551
G1 X68.193 Y68.193 E117.33896
G1 X81.807 Y68.193 E118.05025
G1 X81.807 Y81.747 E118.75841
G1 X82.300 Y82.300 F7800.000
G1 X67.700 Y82.300 E119.19191 F1642.776
G1 X67.700 Y67.700 E119.62540
G1 X82.300 Y67.700 E120.05889
G1 X82.300 Y82.240 E120.49060
G1 X81.954 Y82.100 F7800.000
G1 X80.645 Y77.060 F7800.000
G1 X78.939 Y76.603 E120.58288 F4380.735
G1 X76.117 Y79.425 E120.79136
G1 X76.444 Y80.645 E120.85735
G1 X80.645 Y80.645 E121.07681
G1 X80.645 Y77.060 E121.26409
G1 X80.645 Y70.556 F7800.000
G1 X80.645 Y69.355 E121.32681 F4380.735
G1 X79.924 Y69.355 E121.36448
G1 X80.121 Y70.090 E121.40422
G1 X77.299 Y72.911 E121.61270
G1 X74.496 Y72.160 E121.76431
G1 X71.674 Y74.982 E121.97279
G1 X72.425 Y77.785 E122.12441
G1 X69.604 Y80.607 E122.33288
G1 X69.355 Y80.540 E122.34634
G1 X69.355 Y80.645 E122.35182
G1 X70.454 Y80.645 E122.40925
G1 X72.870 Y78.229 E122.58771
G1 X75.673 Y78.981 E122.73933
G1 X78.495 Y76.159 E122.94781
G1 X77.743 Y73.356 E123.09943
G1 X80.565 Y70.534 E123.30790
G1 X80.645 Y70.556 E123.31222
G1 X74.052 Y71.716 F7800.000
G1 X73.419 Y69.355 E123.43992 F4380.735
G1 X69.355 Y69.355 E123.65225
G1 X69.355 Y74.035 E123.89676
G1 X71.230 Y74.538 E123.99818
G1 X74.052 Y71.716 E124.20666
G1 Z1.800 F7800.000
G1 X81.179 Y81.179 F7800.000
G1 X68.821 Y81.179 E124.85230 F3360.162
G1 X68.821 Y68.821 E125.49794
G1 X81.179 Y68.821 E126.14358
G1 X81.179 Y81.119 E126.78608
G1 X81.807 Y81.807 F7800.000
G1 X68.193 Y81.807 E127.49738 F3360.162
G1 X68.193 Y68.193 E128.20867
G1 X81.807 Y68.193 E128.91996
G1 X81.807 Y81.747 E129.62812
G1 X82.300 Y82.300 F7800.000
G1 X67.700 Y82.300 E130.06162 F1680.081
G1 X67.700 Y67.700 E130.49511
G1 X82.300 Y67.700 E130.92860
G1 X82.300 Y82.240 E131.36031
G1 X81.954 Y82.100 F7800.000
G1 X79.958 Y70.697 F7800.000
G1 X77.906 Y72.749 E131.51193 F4480.216
G1 X78.939 Y76.603 E131.72041
G1 X80.645 Y77.060 E131.81268
G1 X80.645 Y80.645 E131.99996
G1 X76.769 Y80.645 E132.20243
G1 X76.280 Y78.818 E132.30125
G1 X78.332 Y76.766 E132.45287
G1 X77.299 Y72.911 E132.66134
G1 X74.496 Y72.160 E132.81296
G1 X73.744 Y69.355 E132.96470
G1 X79.599 Y69.355 E133.27056
G1 X79.958 Y70.697 E133.34313
G1 X80.645 Y70.556 F7800.000
G1 X80.565 Y70.534 E133.34745 F4480.216
G1 X80.249 Y69.355 E133.41122
G1 X80.645 Y69.355 E133.43190
G1 X80.645 Y70.556 E133.49462
G1 X73.889 Y72.323 F7800.000
G1 X71.837 Y74.375 E133.64624 F4480.216
G1 X72.870 Y78.229 E133.85471
G1 X75.673 Y78.981 E134.00633
G1 X76.119 Y80.645 E134.09635
G1 X70.265 Y80.645 E134.40221
G1 X70.211 Y80.444 E134.41307
G1 X72.263 Y78.392 E134.56469
G1 X71.230 Y74.538 E134.77316
G1 X69.355 Y74.035 E134.87458
G1 X69.355 Y69.355 E135.11910
G1 X73.094 Y69.355 E135.31443
G1 X73.889 Y72.323 E135.47496
G1 X69.604 Y80.607 F7800.000
G1 X69.614 Y80.645 E135.47702 F4480.216
G1 X69.355 Y80.645 E135.49055
G1 X69.355 Y80.540 E135.49603
G1 X69.604 Y80.607 E135.50948
G1 Z2.000 F7800.000
G1 X81.179 Y81.179 F7800.000
G1 X68.821 Y81.179 E136.15512 F3354.214
G1 X68.821 Y68.821 E136.80076
G1 X81.179 Y68.821 E137.44640
G1 X81.179 Y81.119 E138.08891
G1 X81.807 Y81.807 F7800.000
G1 X68.193 Y81.807 E138.80020 F3354.214
G1 X68.193 Y68.193 E139.51150
G1 X81.807 Y68.193 E140.22279
G1 X81.807 Y81.747 E140.93095
G1 X82.300 Y82.300 F7800.000
G1 X67.700 Y82.300 E141.36444 F1677.107
G1 X67.700 Y67.700 E141.79794
G1 X82.300 Y67.700 E142.23143
G1 X82.300 Y82.240 E142.66314
G1 X81.954 Y82.100 F7800.000
G1 X80.645 Y70.230 F7800.000
G1 X80.121 Y70.090 E142.69149 F4472.286
G1 X79.924 Y69.355 E142.73123
G1 X80.645 Y69.355 E142.76890
G1 X80.645 Y70.230 E142.81463
G1 X74.052 Y71.716 F7800.000
G1 X77.906 Y72.749 E143.02311 F4472.286
G1 X79.958 Y70.697 E143.17472
G1 X80.645 Y70.881 E143.21187
G1 X80.645 Y76.735 E143.51773
G1 X78.495 Y76.159 E143.63404
G1 X77.743 Y73.356 E143.78566
G1 X73.889 Y72.323 E143.99413
G1 X71.837 Y74.375 E144.14575
G1 X69.355 Y73.710 E144.27999
G1 X69.355 Y69.355 E144.50752
G1 X73.419 Y69.355 E144.71984
G1 X74.052 Y71.716 E144.84754
G1 X71.674 Y74.982 F7800.000
G1 X72.425 Y77.785 E144.99916 F4472.286
G1 X76.280 Y78.818 E145.20764
G1 X78.332 Y76.766 E145.35926
