; generated by Slic3r 1.2.9 on 2016-04-25 at 01:04:50

; external perimeters extrusion width = 0.40mm
; perimeters extrusion width = 0.48mm
; infill extrusion width = 0.48mm
; solid infill extrusion width = 0.48mm
; top infill extrusion width = 0.48mm

M107
M104 S215 ; set temperature
G28 ; home all axes
G1 Z5 F5000 ; lift nozzle

M109 S215 ; wait for temperature to be reached
G21 ; set units to millimeters
G90 ; use absolute coordinates
M82 ; use absolute distances for extrusion
G92 E0
G1 Z0.400 F7800.000
G1 E-2.00000 F2400.00000
G92 E0
G1 X62.327 Y63.220 F7800.000
G1 E2.00000 F2400.00000
G1 X64.083 Y61.720 E2.27422 F1800.000
G1 X66.243 Y60.905 E2.54845
G1 X67.500 Y60.786 E2.69842
G1 X82.500 Y60.786 E4.47989
G1 X84.775 Y61.183 E4.75412
G1 X86.780 Y62.327 E5.02834 F1800.000
G1 X88.280 Y64.083 E5.30257
G1 X89.095 Y66.243 E5.57679
G1 X89.214 Y67.500 E5.72676
G1 X89.214 Y82.500 E7.50824
G1 X88.817 Y84.775 E7.78246
G1 X87.673 Y86.780 E8.05669
G1 X85.917 Y88.280 E8.33091
G1 X83.757 Y89.095 E8.60514
G1 X82.500 Y89.214 E8.75510
G1 X67.500 Y89.214 E10.53658
G1 X65.225 Y88.817 E10.81081
G1 X63.220 Y87.673 E11.08503
G1 X61.720 Y85.917 E11.35926
G1 X60.905 Y83.757 E11.63348
G1 X60.786 Y82.500 E11.78345
G1 X60.786 Y67.500 E13.56492
G1 X61.183 Y65.225 E13.83915
G1 X62.297 Y63.272 E14.10625
G1 E12.10625 F2400.00000
G92 E0
G1 X80.672 Y80.672 F7800.000
G1 E2.00000 F2400.00000
G1 X69.328 Y80.672 E3.34720 F1800.000
G1 X69.328 Y69.328 E4.69439
G1 X80.672 Y69.328 E6.04159
G1 X80.672 Y80.612 E7.38166
G1 X81.386 Y81.386 F7800.000
G1 X68.614 Y81.386 E8.89849 F1800.000
G1 X68.614 Y68.614 E10.41532
G1 X81.386 Y68.614 E11.93215
G1 X81.386 Y81.326 E13.44186
G1 X82.100 Y82.100 F7800.000
G1 X67.900 Y82.100 E15.12833 F1800.000
G1 X67.900 Y67.900 E16.81479
G1 X82.100 Y67.900 E18.50126
G1 X82.100 Y82.040 E20.18060
G1 X81.754 Y81.900 F7800.000
G1 X80.236 Y70.107 F7800.000
G1 X79.893 Y69.764 E20.23837 F1800.000
G1 X78.880 Y69.764 E20.35903
G1 X80.236 Y71.120 E20.58744
G1 X80.236 Y72.133 E20.70809
G1 X77.867 Y69.764 E21.10713
G1 X76.854 Y69.764 E21.22778
G1 X80.236 Y73.146 E21.79745
G1 X80.236 Y74.159 E21.91810
G1 X75.841 Y69.764 E22.65840
G1 X74.828 Y69.764 E22.77906
G1 X80.236 Y75.171 E23.68999
G1 X80.236 Y76.184 E23.81064
G1 X73.816 Y69.764 E24.89220
G1 X72.803 Y69.764 E25.01285
G1 X80.236 Y77.197 E26.26504
G1 X80.236 Y78.210 E26.38570
G1 X71.790 Y69.764 E27.80852
G1 X70.777 Y69.764 E27.92917
G1 X80.236 Y79.223 E29.52262
G1 X80.216 Y80.216 E29.64091
G1 X69.784 Y69.784 E31.39826
G1 X69.764 Y70.777 E31.51655
G1 X79.223 Y80.236 E33.11000
G1 X78.210 Y80.236 E33.23066
G1 X69.764 Y71.790 E34.65347
G1 X69.764 Y72.803 E34.77413
G1 X77.197 Y80.236 E36.02632
G1 X76.184 Y80.236 E36.14697
G1 X69.764 Y73.816 E37.22853
G1 X69.764 Y74.829 E37.34918
G1 X75.171 Y80.236 E38.26011
G1 X74.159 Y80.236 E38.38076
G1 X69.764 Y75.841 E39.12106
G1 X69.764 Y76.854 E39.24171
G1 X73.146 Y80.236 E39.81138
G1 X72.133 Y80.236 E39.93204
G1 X69.764 Y77.867 E40.33107
G1 X69.764 Y78.880 E40.45173
G1 X71.120 Y80.236 E40.68013
G1 X70.107 Y80.236 E40.80079
G1 X69.764 Y79.893 E40.85856
M104 S210 ; set temperature
G1 Z0.700 F7800.000
G1 X81.504 Y81.504 F7800.000
G1 X68.496 Y81.504 E41.53815 F3600.000
G1 X68.496 Y68.496 E42.21774
G1 X81.504 Y68.496 E42.89733
G1 X81.504 Y81.444 E43.57378
G1 X81.923 Y81.923 F7800.000
G1 X68.077 Y81.923 E44.29714 F3600.000
G1 X68.077 Y68.077 E45.02049
G1 X81.923 Y68.077 E45.74385
G1 X81.923 Y81.863 E46.46407
G1 X82.300 Y82.300 F7800.000
G1 X67.700 Y82.300 E47.07523 F1800.000
G1 X67.700 Y67.700 E47.68639
G1 X82.300 Y67.700 E48.29755
G1 X82.300 Y82.240 E48.90620
G1 X81.954 Y82.100 F7800.000
G1 X81.039 Y81.257 F7800.000
G1 X81.257 Y81.039 E48.92249 F1200.000
G1 X81.257 Y80.439 E48.95422
G1 X80.439 Y81.257 E49.01538
G1 X79.839 Y81.257 E49.04710
G1 X81.257 Y79.839 E49.15313
G1 X81.257 Y79.240 E49.18486
G1 X79.240 Y81.257 E49.33575
G1 X78.640 Y81.257 E49.36748
G1 X81.257 Y78.640 E49.56325
G1 X81.257 Y78.040 E49.59497
G1 X78.040 Y81.257 E49.83561
G1 X77.440 Y81.257 E49.86734
G1 X81.257 Y77.440 E50.15284
G1 X81.257 Y76.840 E50.18457
G1 X76.840 Y81.257 E50.51495
G1 X76.241 Y81.257 E50.54667
G1 X81.257 Y76.241 E50.92192
G1 X81.257 Y75.641 E50.95365
G1 X75.641 Y81.257 E51.37376
G1 X75.041 Y81.257 E51.40549
G1 X81.257 Y75.041 E51.87047
G1 X81.257 Y74.441 E51.90220
G1 X74.441 Y81.257 E52.41206
G1 X73.842 Y81.257 E52.44378
G1 X81.257 Y73.842 E52.99851
G1 X81.257 Y73.242 E53.03023
G1 X73.242 Y81.257 E53.62983
G1 X72.642 Y81.257 E53.66156
G1 X81.257 Y72.642 E54.30602
G1 X81.257 Y72.042 E54.33775
G1 X72.042 Y81.257 E55.02708
G1 X71.442 Y81.257 E55.05881
G1 X81.257 Y71.442 E55.79301
G1 X81.257 Y70.843 E55.82474
G1 X70.843 Y81.257 E56.60381
G1 X70.243 Y81.257 E56.63554
G1 X81.257 Y70.243 E57.45948
G1 X81.257 Y69.643 E57.49121
G1 X69.643 Y81.257 E58.36002
G1 X69.043 Y81.257 E58.39175
G1 X81.257 Y69.043 E59.30543
G1 X80.957 Y68.743 E59.32786
G1 X68.743 Y80.957 E60.24154
G1 X68.743 Y80.357 E60.27327
G1 X80.357 Y68.743 E61.14208
G1 X79.757 Y68.743 E61.17381
G1 X68.743 Y79.757 E61.99775
G1 X68.743 Y79.157 E62.02948
G1 X79.157 Y68.743 E62.80855
G1 X78.558 Y68.743 E62.84028
G1 X68.743 Y78.558 E63.57448
G1 X68.743 Y77.958 E63.60621
G1 X77.958 Y68.743 E64.29554
G1 X77.358 Y68.743 E64.32727
G1 X68.743 Y77.358 E64.97173
G1 X68.743 Y76.758 E65.00346
G1 X76.758 Y68.743 E65.60306
G1 X76.158 Y68.743 E65.63478
G1 X68.743 Y76.158 E66.18951
G1 X68.743 Y75.559 E66.22123
G1 X75.559 Y68.743 E66.73109
G1 X74.959 Y68.743 E66.76282
G1 X68.743 Y74.959 E67.22780
G1 X68.743 Y74.359 E67.25953
G1 X74.359 Y68.743 E67.67964
G1 X73.759 Y68.743 E67.71137
G1 X68.743 Y73.759 E68.08661
G1 X68.743 Y73.160 E68.11834
G1 X73.160 Y68.743 E68.44872
G1 X72.560 Y68.743 E68.48045
G1 X68.743 Y72.560 E68.76595
G1 X68.743 Y71.960 E68.79768
G1 X71.960 Y68.743 E69.03831
G1 X71.360 Y68.743 E69.07004
G1 X68.743 Y71.360 E69.26581
G1 X68.743 Y70.760 E69.29753
G1 X70.760 Y68.743 E69.44843
G1 X70.161 Y68.743 E69.48016
G1 X68.743 Y70.161 E69.58618
G1 X68.743 Y69.561 E69.61791
G1 X69.561 Y68.743 E69.67907
G1 X68.961 Y68.743 E69.71080
G1 X68.743 Y68.961 E69.72708
G1 Z1.000 F7800.000
G1 X81.504 Y81.504 F7800.000
G1 X68.496 Y81.504 E70.40667 F3600.000
G1 X68.496 Y68.496 E71.08626
G1 X81.504 Y68.496 E71.76585
G1 X81.504 Y81.444 E72.44230
G1 X81.923 Y81.923 F7800.000
G1 X68.077 Y81.923 E73.16566 F3600.000
G1 X68.077 Y68.077 E73.88902
G1 X81.923 Y68.077 E74.61237
G1 X81.923 Y81.863 E75.33259
G1 X82.300 Y82.300 F7800.000
G1 X67.700 Y82.300 E75.94375 F1800.000
G1 X67.700 Y67.700 E76.55492
G1 X82.300 Y67.700 E77.16608
G1 X82.300 Y82.240 E77.77472
G1 X81.954 Y82.100 F7800.000
G1 X81.257 Y68.961 F7800.000
G1 X81.039 Y68.743 E77.79101 F1200.000
G1 X80.439 Y68.743 E77.82274
G1 X81.257 Y69.561 E77.88390
G1 X81.257 Y70.161 E77.91562
G1 X79.839 Y68.743 E78.02165
G1 X79.240 Y68.743 E78.05338
G1 X81.257 Y70.760 E78.20427
G1 X81.257 Y71.360 E78.23600
G1 X78.640 Y68.743 E78.43177
G1 X78.040 Y68.743 E78.46350
G1 X81.257 Y71.960 E78.70413
G1 X81.257 Y72.560 E78.73586
G1 X77.440 Y68.743 E79.02136
G1 X76.840 Y68.743 E79.05309
G1 X81.257 Y73.160 E79.38347
G1 X81.257 Y73.759 E79.41520
G1 X76.241 Y68.743 E79.79044
G1 X75.641 Y68.743 E79.82217
G1 X81.257 Y74.359 E80.24228
G1 X81.257 Y74.959 E80.27401
G1 X75.041 Y68.743 E80.73899
G1 X74.441 Y68.743 E80.77072
G1 X81.257 Y75.559 E81.28058
G1 X81.257 Y76.158 E81.31230
G1 X73.842 Y68.743 E81.86703
G1 X73.242 Y68.743 E81.89876
G1 X81.257 Y76.758 E82.49835
G1 X81.257 Y77.358 E82.53008
G1 X72.642 Y68.743 E83.17454
G1 X72.042 Y68.743 E83.20627
G1 X81.257 Y77.958 E83.89560
G1 X81.257 Y78.558 E83.92733
G1 X71.442 Y68.743 E84.66153
G1 X70.843 Y68.743 E84.69326
G1 X81.257 Y79.157 E85.47233
G1 X81.257 Y79.757 E85.50406
G1 X70.243 Y68.743 E86.32800
G1 X69.643 Y68.743 E86.35973
G1 X81.257 Y80.357 E87.22854
G1 X81.257 Y80.957 E87.26027
G1 X69.043 Y68.743 E88.17395
G1 X68.743 Y69.043 E88.19638
G1 X80.957 Y81.257 E89.11007
G1 X80.357 Y81.257 E89.14179
G1 X68.743 Y69.643 E90.01061
G1 X68.743 Y70.243 E90.04233
G1 X79.757 Y81.257 E90.86628
G1 X79.157 Y81.257 E90.89800
G1 X68.743 Y70.843 E91.67708
G1 X68.743 Y71.442 E91.70880
G1 X78.558 Y81.257 E92.44301
G1 X77.958 Y81.257 E92.47473
G1 X68.743 Y72.042 E93.16407
G1 X68.743 Y72.642 E93.19579
G1 X77.358 Y81.257 E93.84026
G1 X76.758 Y81.257 E93.87198
G1 X68.743 Y73.242 E94.47158
G1 X68.743 Y73.842 E94.50331
G1 X76.158 Y81.257 E95.05803
G1 X75.559 Y81.257 E95.08976
G1 X68.743 Y74.441 E95.59961
G1 X68.743 Y75.041 E95.63134
G1 X74.959 Y81.257 E96.09632
G1 X74.359 Y81.257 E96.12805
G1 X68.743 Y75.641 E96.54816
G1 X68.743 Y76.241 E96.57989
G1 X73.759 Y81.257 E96.95514
G1 X73.160 Y81.257 E96.98686
G1 X68.743 Y76.840 E97.31724
G1 X68.743 Y77.440 E97.34897
G1 X72.560 Y81.257 E97.63447
G1 X71.960 Y81.257 E97.66620
G1 X68.743 Y78.040 E97.90684
G1 X68.743 Y78.640 E97.93856
G1 X71.360 Y81.257 E98.13433
G1 X70.760 Y81.257 E98.16606
G1 X68.743 Y79.240 E98.31695
G1 X68.743 Y79.839 E98.34868
G1 X70.161 Y81.257 E98.45471
G1 X69.561 Y81.257 E98.48643
G1 X68.743 Y80.439 E98.54759
G1 X68.743 Y81.039 E98.57932
G1 X68.961 Y81.257 E98.59561
M106 S252.45
G1 Z1.300 F7800.000
G1 X81.504 Y81.504 F7800.000
G1 X68.496 Y81.504 E99.27519 F3600.000
G1 X68.496 Y68.496 E99.95478
G1 X81.504 Y68.496 E100.63437
G1 X81.504 Y81.444 E101.31082
G1 X81.923 Y81.923 F7800.000
G1 X68.077 Y81.923 E102.03418 F3600.000
G1 X68.077 Y68.077 E102.75754
G1 X81.923 Y68.077 E103.48089
G1 X81.923 Y81.863 E104.20112
G1 X82.300 Y82.300 F7800.000
G1 X67.700 Y82.300 E104.81228 F1800.000
G1 X67.700 Y67.700 E105.42344
G1 X82.300 Y67.700 E106.03460
G1 X82.300 Y82.240 E106.64325
G1 X81.954 Y82.100 F7800.000
G1 X81.148 Y79.519 F7800.000
G1 X81.050 Y79.493 E106.64855 F4800.000
G1 X79.395 Y81.148 E106.77084
G1 X81.148 Y81.148 E106.86244
G1 X81.148 Y79.519 E106.94754
G1 X81.148 Y76.433 F7800.000
G1 X81.148 Y75.840 E106.97849 F4800.000
G1 X79.957 Y77.032 E107.06650
G1 X78.088 Y76.531 E107.16758
G1 X76.207 Y78.412 E107.30656
G1 X76.707 Y80.281 E107.40764
G1 X75.840 Y81.148 E107.47172
G1 X76.433 Y81.148 E107.50267
G1 X77.004 Y80.577 E107.54486
G1 X78.872 Y81.078 E107.64594
G1 X80.754 Y79.196 E107.78492
G1 X80.253 Y77.328 E107.88600
G1 X81.148 Y76.433 E107.95213
G1 X81.148 Y72.878 F7800.000
G1 X81.148 Y68.852 E108.16248 F4800.000
G1 X79.843 Y68.852 E108.23067
G1 X78.375 Y70.320 E108.33910
G1 X78.876 Y72.189 E108.44018
G1 X76.995 Y74.070 E108.57916
G1 X75.126 Y73.569 E108.68024
G1 X73.245 Y75.450 E108.81923
G1 X73.746 Y77.319 E108.92030
G1 X71.865 Y79.200 E109.05929
G1 X69.996 Y78.699 E109.16037
G1 X68.852 Y79.843 E109.24486
G1 X68.852 Y81.148 E109.31305
G1 X72.603 Y81.148 E109.50903
G1 X72.161 Y79.496 E109.59838
G1 X74.042 Y77.615 E109.73736
G1 X75.911 Y78.116 E109.83844
G1 X77.792 Y76.235 E109.97742
G1 X77.291 Y74.366 E110.07850
G1 X79.172 Y72.485 E110.21749
G1 X81.041 Y72.985 E110.31857
G1 X81.148 Y72.878 E110.32648
G1 X78.079 Y70.024 F7800.000
G1 X79.250 Y68.852 E110.41302 F4800.000
G1 X75.814 Y68.852 E110.59257
G1 X75.914 Y69.227 E110.61282
G1 X74.033 Y71.108 E110.75181
G1 X72.164 Y70.607 E110.85289
G1 X70.283 Y72.488 E110.99187
G1 X70.784 Y74.357 E111.09295
G1 X68.903 Y76.238 E111.23193
G1 X68.852 Y76.224 E111.23466
G1 X68.852 Y79.250 E111.39275
G1 X69.700 Y78.403 E111.45535
G1 X69.199 Y76.534 E111.55643
G1 X71.080 Y74.653 E111.69542
G1 X72.949 Y75.154 E111.79650
G1 X74.830 Y73.273 E111.93548
G1 X74.329 Y71.404 E112.03656
G1 X76.210 Y69.523 E112.17554
G1 X78.079 Y70.024 E112.27662
G1 X71.868 Y70.311 F7800.000
G1 X71.477 Y68.852 E112.35551 F4800.000
G1 X68.852 Y68.852 E112.49265
G1 X68.852 Y71.888 E112.65124
G1 X69.987 Y72.192 E112.71261
G1 X71.868 Y70.311 E112.85159
G1 Z1.600 F7800.000
G1 X81.504 Y81.504 F7800.000
G1 X68.496 Y81.504 E113.53118 F3600.000
G1 X68.496 Y68.496 E114.21077
G1 X81.504 Y68.496 E114.89036
G1 X81.504 Y81.444 E115.56681
G1 X81.923 Y81.923 F7800.000
G1 X68.077 Y81.923 E116.29017 F3600.000
G1 X68.077 Y68.077 E117.01352
G1 X81.923 Y68.077 E117.73688
G1 X81.923 Y81.863 E118.45710
G1 X82.300 Y82.300 F7800.000
G1 X67.700 Y82.300 E119.06826 F1800.000
G1 X67.700 Y67.700 E119.67942
G1 X82.300 Y67.700 E120.29058
G1 X82.300 Y82.240 E120.89923
G1 X81.954 Y82.100 F7800.000
G1 X78.483 Y69.915 F7800.000
G1 X79.172 Y72.485 E121.03822 F4800.000
G1 X81.041 Y72.985 E121.13930
G1 X81.148 Y73.385 E121.16091
G1 X81.148 Y76.136 E121.30466
G1 X80.361 Y76.923 E121.36278
G1 X81.050 Y79.493 E121.50176
G1 X81.148 Y79.519 E121.50707
G1 X81.148 Y81.148 E121.59217
G1 X79.325 Y81.148 E121.68740
G1 X79.277 Y80.969 E121.69706
G1 X80.645 Y79.601 E121.79814
G1 X79.957 Y77.032 E121.93713
G1 X78.088 Y76.531 E122.03821
G1 X77.399 Y73.961 E122.17719
G1 X78.767 Y72.593 E122.27827
G1 X78.079 Y70.024 E122.41725
G1 X76.210 Y69.523 E122.51833
G1 X76.030 Y68.852 E122.55461
G1 X79.546 Y68.852 E122.73830
G1 X78.483 Y69.915 E122.81684
G1 X75.805 Y69.631 F7800.000
G1 X74.437 Y70.999 E122.91792 F4800.000
G1 X75.126 Y73.569 E123.05690
G1 X76.995 Y74.070 E123.15798
G1 X77.683 Y76.639 E123.29696
G1 X76.315 Y78.007 E123.39804
G1 X77.004 Y80.577 E123.53703
G1 X78.872 Y81.078 E123.63811
G1 X78.891 Y81.148 E123.64191
G1 X76.136 Y81.148 E123.78583
G1 X76.599 Y80.685 E123.82001
G1 X75.911 Y78.116 E123.95899
G1 X74.042 Y77.615 E124.06007
G1 X73.353 Y75.045 E124.19906
G1 X74.721 Y73.677 E124.30014
G1 X74.033 Y71.108 E124.43912
G1 X72.164 Y70.607 E124.54020
G1 X71.694 Y68.852 E124.63511
G1 X75.597 Y68.852 E124.83902
G1 X75.805 Y69.631 E124.88115
G1 X71.759 Y70.715 F7800.000
G1 X70.391 Y72.083 E124.98223 F4800.000
G1 X71.080 Y74.653 E125.12122
G1 X72.949 Y75.154 E125.22230
G1 X73.637 Y77.723 E125.36128
G1 X72.269 Y79.091 E125.46236
G1 X72.820 Y81.148 E125.57359
G1 X72.386 Y81.148 E125.59625
G1 X71.865 Y79.200 E125.70161
G1 X69.996 Y78.699 E125.80269
G1 X69.307 Y76.129 E125.94167
G1 X70.675 Y74.761 E126.04275
G1 X69.987 Y72.192 E126.18174
G1 X68.852 Y71.888 E126.24310
G1 X68.852 Y68.852 E126.40170
G1 X71.260 Y68.852 E126.52750
G1 X71.759 Y70.715 E126.62828
G1 X68.903 Y76.238 F7800.000
G1 X69.591 Y78.807 E126.76726 F4800.000
G1 X68.852 Y79.546 E126.82186
G1 X68.852 Y76.224 E126.99542
G1 X68.903 Y76.238 E126.99815
G1 Z1.900 F7800.000
G1 X81.504 Y81.504 F7800.000
G1 X68.496 Y81.504 E127.67774 F3600.000
G1 X68.496 Y68.496 E128.35732
G1 X81.504 Y68.496 E129.03691
G1 X81.504 Y81.444 E129.71337
G1 X81.923 Y81.923 F7800.000
G1 X68.077 Y81.923 E130.43672 F3600.000
G1 X68.077 Y68.077 E131.16008
G1 X81.923 Y68.077 E131.88344
G1 X81.923 Y81.863 E132.60366
G1 X82.300 Y82.300 F7800.000
G1 X67.700 Y82.300 E133.21482 F1800.000
G1 X67.700 Y67.700 E133.82598
G1 X82.300 Y67.700 E134.43714
G1 X82.300 Y82.240 E135.04579
G1 X81.954 Y82.100 F7800.000
G1 X78.483 Y69.915 F7800.000
G1 X75.914 Y69.227 E135.18477 F4800.000
G1 X75.814 Y68.852 E135.20502
G1 X79.546 Y68.852 E135.40005
G1 X78.483 Y69.915 E135.47858
G1 X81.148 Y68.894 F7800.000
G1 X80.990 Y68.852 E135.48711 F4800.000
G1 X81.148 Y68.852 E135.49535
G1 X81.148 Y68.894 E135.49755
G1 X71.868 Y70.311 F7800.000
G1 X74.437 Y70.999 E135.63654 F4800.000
G1 X75.805 Y69.631 E135.73762
G1 X78.375 Y70.320 E135.87660
G1 X78.876 Y72.189 E135.97768
G1 X81.148 Y72.797 E136.10057
G1 X81.148 Y73.231 E136.12323
G1 X78.767 Y72.593 E136.25198
G1 X77.399 Y73.961 E136.35306
G1 X74.830 Y73.273 E136.49205
G1 X74.329 Y71.404 E136.59313
G1 X71.759 Y70.715 E136.73211
G1 X70.391 Y72.083 E136.83319
G1 X68.852 Y71.671 E136.91644
G1 X68.852 Y68.852 E137.06371
G1 X71.477 Y68.852 E137.20084
G1 X71.868 Y70.311 E137.27973
G1 X70.283 Y72.488 F7800.000
G1 X70.784 Y74.357 E137.38081 F4800.000
G1 X73.353 Y75.045 E137.51979
G1 X74.721 Y73.677 E137.62087
G1 X77.291 Y74.366 E137.75986
G1 X77.792 Y76.235 E137.86094
G1 X80.361 Y76.923 E137.99992
G1 X81.148 Y76.136 E138.05804
G1 X81.148 Y79.302 E138.22343
G1 X80.754 Y79.196 E138.24475
G1 X80.253 Y77.328 E138.34583
G1 X77.683 Y76.639 E138.48482
G1 X76.315 Y78.007 E138.58589
G1 X73.746 Y77.319 E138.72488
G1 X73.245 Y75.450 E138.82596
G1 X70.675 Y74.761 E138.96494
G1 X69.307 Y76.129 E139.06602
G1 X68.852 Y76.008 E139.09063
G1 X68.852 Y72.105 E139.29454
G1 X70.283 Y72.488 E139.37193
G1 X69.199 Y76.534 F7800.000
