; Generated by Nick&Em's Slycer at 'I'm too lazy to import datetime'C

; Perimeter Layers: 2
; Infill: 20.0%%
; Layer Height: 0.19mm
; Nozzle Size: 0.4mm
; Support Off
; Temperature 210 degrees C

; SETUP
M107 ; fan off
M104 S210 ; set temperature
G28 X0 Y0 Z0 ; home all axes
G1 Z5 F5000 ; lift nozzle

M109 S210 ; wait for temperature to be reached
G21 ; set units to millimeters
G90 ; use absolute coordinates
M82 ; use absolute distances for extrusion
G1 Z0.400 F2400 ; put printhead at good distance from bed
G92 E0
G29 ; idk but cura does this to touch the corners
; LAYER Z=0.000000
G1 Z0.000000 ; raise print head
; PERIMETER 0
G1 X21.000000 Y11.000000
G1 X20.980300 Y11.627900 E0.143591
G1 X20.921100 Y12.253300 E0.287178
G1 X20.822900 Y12.873800 E0.430772
G1 X20.685800 Y13.486900 E0.574370
G1 X20.510600 Y14.090200 E0.717964
G1 X20.297800 Y14.681200 E0.861540
G1 X20.048300 Y15.257800 E1.005144
G1 X19.763100 Y15.817500 E1.148726
G1 X19.443300 Y16.358300 E1.292333
G1 X19.090200 Y16.877900 E1.435927
G1 X18.705100 Y17.374200 E1.579512
G1 X18.289700 Y17.845500 E1.723109
G1 X17.845500 Y18.289700 E1.866696
G1 X17.374200 Y18.705100 E2.010293
G1 X16.877900 Y19.090200 E2.153878
G1 X16.358300 Y19.443300 E2.297472
G1 X15.817500 Y19.763100 E2.441079
G1 X15.257800 Y20.048300 E2.584662
G1 X14.681200 Y20.297800 E2.728265
G1 X14.090200 Y20.510600 E2.871841
G1 X13.486900 Y20.685800 E3.015435
G1 X12.873800 Y20.822900 E3.159033
G1 X12.253300 Y20.921100 E3.302627
G1 X11.627900 Y20.980300 E3.446214
G1 X11.000000 Y21.000000 E3.589805
G1 X10.372100 Y20.980300 E3.733396
G1 X9.746670 Y20.921100 E3.876990
G1 X9.126190 Y20.822900 E4.020579
G1 X8.513100 Y20.685800 E4.164175
G1 X7.909830 Y20.510600 E4.307763
G1 X7.318750 Y20.297800 E4.451356
G1 X6.742210 Y20.048300 E4.594947
G1 X6.182460 Y19.763100 E4.738540
G1 X5.641730 Y19.443300 E4.882133
G1 X5.122150 Y19.090200 E5.025723
G1 X4.625760 Y18.705100 E5.169324
G1 X4.154530 Y18.289700 E5.312909
G1 X3.710310 Y17.845500 E5.456499
G1 X3.294870 Y17.374200 E5.600102
G1 X2.909830 Y16.877900 E5.743679
G1 X2.556720 Y16.358300 E5.887274
G1 X2.236930 Y15.817500 E6.030880
G1 X1.951730 Y15.257800 E6.174463
G1 X1.702240 Y14.681200 E6.318065
G1 X1.489430 Y14.090200 E6.461642
G1 X1.314170 Y13.486900 E6.605240
G1 X1.177130 Y12.873800 E6.748835
G1 X1.078850 Y12.253300 E6.892432
G1 X1.019730 Y11.627900 E7.036017
G1 X1.000000 Y11.000000 E7.179608
G1 X1.019730 Y10.372100 E7.323199
G1 X1.078850 Y9.746670 E7.466792
G1 X1.177130 Y9.126190 E7.610384
G1 X1.314170 Y8.513100 E7.753977
G1 X1.489430 Y7.909830 E7.897568
G1 X1.702240 Y7.318750 E8.041162
G1 X1.951730 Y6.742210 E8.184752
G1 X2.236930 Y6.182460 E8.328345
G1 X2.556720 Y5.641730 E8.471937
G1 X2.909830 Y5.122150 E8.615528
G1 X3.294870 Y4.625760 E8.759121
G1 X3.710310 Y4.154530 E8.902712
G1 X4.154530 Y3.710310 E9.046306
G1 X4.625760 Y3.294870 E9.189897
G1 X5.122150 Y2.909830 E9.333489
G1 X5.641730 Y2.556720 E9.477081
G1 X6.182460 Y2.236930 E9.620673
G1 X6.742210 Y1.951730 E9.764266
G1 X7.318750 Y1.702240 E9.907856
G1 X7.909830 Y1.489430 E10.051450
G1 X8.513100 Y1.314170 E10.195041
G1 X9.126190 Y1.177130 E10.338634
G1 X9.746670 Y1.078850 E10.482226
G1 X10.372100 Y1.019730 E10.625819
G1 X11.000000 Y1.000000 E10.769409
G1 X11.627900 Y1.019730 E10.913000
G1 X12.253300 Y1.078850 E11.056586
G1 X12.873800 Y1.177130 E11.200183
G1 X13.486900 Y1.314170 E11.343778
G1 X14.090200 Y1.489430 E11.487376
G1 X14.681200 Y1.702240 E11.630952
G1 X15.257800 Y1.951730 E11.774555
G1 X15.817500 Y2.236930 E11.918138
G1 X16.358300 Y2.556720 E12.061744
G1 X16.877900 Y2.909830 E12.205339
G1 X17.374200 Y3.294870 E12.348915
G1 X17.845500 Y3.710310 E12.492518
G1 X18.289700 Y4.154530 E12.636109
G1 X18.705100 Y4.625760 E12.779694
G1 X19.090200 Y5.122150 E12.923295
G1 X19.443300 Y5.641730 E13.066885
G1 X19.763100 Y6.182460 E13.210478
G1 X20.048300 Y6.742210 E13.354071
G1 X20.297800 Y7.318750 E13.497662
G1 X20.510600 Y7.909830 E13.641255
G1 X20.685800 Y8.513100 E13.784842
G1 X20.822900 Y9.126190 E13.928438
G1 X20.921100 Y9.746670 E14.072028
G1 X20.980300 Y10.372100 E14.215622
G1 X21.000000 Y11.000000 E14.359213
G1 X20.600197 Y11.000000
G1 X20.581286 Y11.602796 E14.497062
G1 X20.524450 Y12.203192 E14.634909
G1 X20.430179 Y12.798884 E14.772762
G1 X20.298558 Y13.387473 E14.910619
G1 X20.130365 Y13.966655 E15.048473
G1 X19.926073 Y14.534023 E15.186308
G1 X19.686548 Y15.087572 E15.324170
G1 X19.412750 Y15.624894 E15.462012
G1 X19.105735 Y16.144075 E15.599878
G1 X18.766753 Y16.642902 E15.737731
G1 X18.397047 Y17.119356 E15.875575
G1 X17.998256 Y17.571816 E16.013432
G1 X17.571816 Y17.998256 E16.151278
G1 X17.119356 Y18.397047 E16.289134
G1 X16.642902 Y18.766753 E16.426978
G1 X16.144075 Y19.105735 E16.564831
G1 X15.624894 Y19.412750 E16.702697
G1 X15.087572 Y19.686548 E16.840539
G1 X14.534023 Y19.926073 E16.978402
G1 X13.966655 Y20.130365 E17.116236
G1 X13.387473 Y20.298558 E17.254090
G1 X12.798884 Y20.430179 E17.391947
G1 X12.203192 Y20.524450 E17.529800
G1 X11.602796 Y20.581286 E17.667647
G1 X11.000000 Y20.600197 E17.805497
G1 X10.397204 Y20.581286 E17.943346
G1 X9.796778 Y20.524450 E18.081200
G1 X9.201106 Y20.430179 E18.219048
G1 X8.612527 Y20.298558 E18.356903
G1 X8.033375 Y20.130365 E18.494750
G1 X7.465927 Y19.926073 E18.632602
G1 X6.912438 Y19.686548 E18.770452
G1 X6.375067 Y19.412750 E18.908304
G1 X5.855955 Y19.105735 E19.046157
G1 X5.357148 Y18.766753 E19.184006
G1 X4.880604 Y18.397047 E19.321866
G1 X4.428214 Y17.998256 E19.459710
G1 X4.001754 Y17.571816 E19.597560
G1 X3.602923 Y17.119356 E19.735422
G1 X3.233277 Y16.642902 E19.873258
G1 X2.894285 Y16.144075 E20.011112
G1 X2.587280 Y15.624894 E20.148977
G1 X2.313482 Y15.087572 E20.286819
G1 X2.073967 Y14.534023 E20.424681
G1 X1.869665 Y13.966654 E20.562516
G1 X1.701412 Y13.387473 E20.700373
G1 X1.569851 Y12.798885 E20.838228
G1 X1.475500 Y12.203192 E20.976084
G1 X1.418744 Y11.602796 E21.113929
G1 X1.399803 Y11.000000 E21.251779
G1 X1.418744 Y10.397204 E21.389629
G1 X1.475500 Y9.796778 E21.527480
G1 X1.569851 Y9.201105 E21.665332
G1 X1.701412 Y8.612527 E21.803184
G1 X1.869665 Y8.033376 E21.941034
G1 X2.073967 Y7.465927 E22.078887
G1 X2.313482 Y6.912438 E22.216736
G1 X2.587280 Y6.375067 E22.354588
G1 X2.894285 Y5.855955 E22.492440
G1 X3.233277 Y5.357148 E22.630290
G1 X3.602923 Y4.880604 E22.768142
G1 X4.001754 Y4.428214 E22.905992
G1 X4.428214 Y4.001754 E23.043845
G1 X4.880604 Y3.602923 E23.181695
G1 X5.357148 Y3.233277 E23.319547
G1 X5.855955 Y2.894285 E23.457397
G1 X6.375067 Y2.587280 E23.595249
G1 X6.912438 Y2.313482 E23.733101
G1 X7.465927 Y2.073967 E23.870950
G1 X8.033376 Y1.869665 E24.008803
G1 X8.612527 Y1.701412 E24.146653
G1 X9.201105 Y1.569851 E24.284505
G1 X9.796778 Y1.475500 E24.422357
G1 X10.397204 Y1.418744 E24.560209
G1 X11.000000 Y1.399803 E24.698059
G1 X11.602796 Y1.418744 E24.835909
G1 X12.203192 Y1.475500 E24.973754
G1 X12.798885 Y1.569851 E25.111609
G1 X13.387473 Y1.701412 E25.249464
G1 X13.966654 Y1.869665 E25.387321
G1 X14.534023 Y2.073967 E25.525156
G1 X15.087572 Y2.313482 E25.663018
G1 X15.624894 Y2.587280 E25.800860
G1 X16.144075 Y2.894285 E25.938725
G1 X16.642902 Y3.233277 E26.076579
G1 X17.119356 Y3.602923 E26.214415
G1 X17.571816 Y4.001754 E26.352277
G1 X17.998256 Y4.428214 E26.490127
G1 X18.397047 Y4.880604 E26.627971
G1 X18.766753 Y5.357148 E26.765831
G1 X19.105735 Y5.855955 E26.903680
G1 X19.412750 Y6.375067 E27.041533
G1 X19.686548 Y6.912438 E27.179385
G1 X19.926073 Y7.465927 E27.317235
G1 X20.130365 Y8.033375 E27.455087
G1 X20.298558 Y8.612527 E27.592934
G1 X20.430179 Y9.201106 E27.730789
G1 X20.524450 Y9.796778 E27.868637
G1 X20.581286 Y10.397204 E28.006491
G1 X20.600197 Y11.000000 E28.144341
; INFILL
; NEW INFILL LINE
G1 X5.279026 Y3.799605
G1 X16.721 Y3.800 E30.75964
; NEW INFILL LINE
G1 X3.415734 Y5.799605
G1 X18.584 Y5.800 E34.22674
; NEW INFILL LINE
G1 X2.378547 Y7.799605
G1 X19.621 Y7.800 E38.16798
; NEW INFILL LINE
G1 X1.879639 Y9.799605
G1 X20.120 Y9.800 E42.33728
; NEW INFILL LINE
G1 X1.838735 Y11.799605
G1 X20.161 Y11.800 E46.52529
; NEW INFILL LINE
G1 X2.237262 Y13.799605
G1 X19.763 Y13.800 E50.53112
; NEW INFILL LINE
G1 X3.154832 Y15.799605
G1 X18.845 Y15.800 E54.11748
; NEW INFILL LINE
G1 X4.807162 Y17.799605
G1 X17.193 Y17.800 E56.94850
; NEW INFILL LINE
G1 X8.327286 Y19.799605
G1 X13.673 Y19.800 E58.17032
; Parallel rasterized triangle on layer 0.0
G1 X20.980300 Y11.627900
G1 X20.980300 Y11.627900 E58.170315
G1 X20.992850 Y11.227900
G1 X20.980300 Y11.227900 E58.173184
G1 X20.980300 Y10.372100
G1 X20.980300 Y10.372100 E58.173184
G1 X20.992850 Y10.772100
G1 X20.980300 Y10.772100 E58.176052
; Parallel rasterized triangle on layer 0.0
G1 X20.980300 Y11.627900
G1 X20.980300 Y11.627900 E58.176052
G1 X20.980300 Y11.227900
G1 X20.967712 Y11.227900 E58.178930
G1 X20.980300 Y10.827900
G1 X20.955125 Y10.827900 E58.184684
G1 X20.980300 Y10.427900
G1 X20.942537 Y10.427900 E58.193315
G1 X20.921100 Y9.746670
G1 X20.921100 Y9.746670 E58.193315
G1 X20.958962 Y10.146670
G1 X20.933688 Y10.146670 E58.199092
; Parallel rasterized triangle on layer 0.0
G1 X20.921100 Y12.253300
G1 X20.921100 Y12.253300 E58.199092
G1 X20.958964 Y11.853300
G1 X20.921100 Y11.853300 E58.207747
G1 X20.921100 Y9.746670
G1 X20.921100 Y9.746670 E58.207747
G1 X20.933688 Y10.146670
G1 X20.921100 Y10.146670 E58.210624
G1 X20.946275 Y10.546670
G1 X20.921100 Y10.546670 E58.216378
G1 X20.958863 Y10.946670
G1 X20.921100 Y10.946670 E58.225010
G1 X20.971450 Y11.346670
G1 X20.921100 Y11.346670 E58.236518
; Parallel rasterized triangle on layer 0.0
G1 X20.921100 Y12.253300
G1 X20.921100 Y12.253300 E58.236518
G1 X20.921100 Y11.853300
G1 X20.908539 Y11.853300 E58.239389
G1 X20.921100 Y11.453300
G1 X20.895978 Y11.453300 E58.245132
G1 X20.921100 Y11.053300
G1 X20.883417 Y11.053300 E58.253745
G1 X20.921100 Y10.653300
G1 X20.870856 Y10.653300 E58.265230
G1 X20.921100 Y10.253300
G1 X20.858294 Y10.253300 E58.279585
G1 X20.921100 Y9.853300
G1 X20.845733 Y9.853300 E58.296812
G1 X20.822900 Y9.126190
G1 X20.822900 Y9.126190 E58.296812
G1 X20.886206 Y9.526190
G1 X20.835461 Y9.526190 E58.308411
; Parallel rasterized triangle on layer 0.0
G1 X20.822900 Y12.873800
G1 X20.822900 Y12.873800 E58.308411
G1 X20.886204 Y12.473800
G1 X20.822900 Y12.473800 E58.322880
G1 X20.822900 Y9.126190
G1 X20.822900 Y9.126190 E58.322880
G1 X20.835461 Y9.526190
G1 X20.822900 Y9.526190 E58.325751
G1 X20.848022 Y9.926190
G1 X20.822900 Y9.926190 E58.331493
G1 X20.860583 Y10.326190
G1 X20.822900 Y10.326190 E58.340107
G1 X20.873144 Y10.726190
G1 X20.822900 Y10.726190 E58.351591
G1 X20.885706 Y11.126190
G1 X20.822900 Y11.126190 E58.365947
G1 X20.898267 Y11.526190
G1 X20.822900 Y11.526190 E58.383173
G1 X20.910828 Y11.926190
G1 X20.822900 Y11.926190 E58.403271
; Parallel rasterized triangle on layer 0.0
G1 X20.822900 Y12.873800
G1 X20.822900 Y12.873800 E58.403271
G1 X20.822900 Y12.473800
G1 X20.810324 Y12.473800 E58.406146
G1 X20.822900 Y12.073800
G1 X20.797748 Y12.073800 E58.411895
G1 X20.822900 Y11.673800
G1 X20.785172 Y11.673800 E58.420518
G1 X20.822900 Y11.273800
G1 X20.772596 Y11.273800 E58.432016
G1 X20.822900 Y10.873800
G1 X20.760020 Y10.873800 E58.446389
G1 X20.822900 Y10.473800
G1 X20.747444 Y10.473800 E58.463636
G1 X20.822900 Y10.073800
G1 X20.734868 Y10.073800 E58.483757
G1 X20.822900 Y9.673800
G1 X20.722292 Y9.673800 E58.506753
G1 X20.822900 Y9.273800
G1 X20.709716 Y9.273800 E58.532624
G1 X20.685800 Y8.513100
G1 X20.685800 Y8.513100 E58.532624
G1 X20.775249 Y8.913100
G1 X20.698376 Y8.913100 E58.550195
; Parallel rasterized triangle on layer 0.0
G1 X20.685800 Y13.486900
G1 X20.685800 Y13.486900 E58.550195
G1 X20.775247 Y13.086900
G1 X20.685800 Y13.086900 E58.570640
G1 X20.685800 Y8.513100
G1 X20.685800 Y8.513100 E58.570640
G1 X20.698376 Y8.913100
G1 X20.685800 Y8.913100 E58.573514
G1 X20.710952 Y9.313100
G1 X20.685800 Y9.313100 E58.579263
G1 X20.723528 Y9.713100
G1 X20.685800 Y9.713100 E58.587887
G1 X20.736104 Y10.113100
G1 X20.685800 Y10.113100 E58.599385
G1 X20.748680 Y10.513100
G1 X20.685800 Y10.513100 E58.613757
G1 X20.761256 Y10.913100
G1 X20.685800 Y10.913100 E58.631004
G1 X20.773832 Y11.313100
G1 X20.685800 Y11.313100 E58.651126
G1 X20.786408 Y11.713100
G1 X20.685800 Y11.713100 E58.674122
G1 X20.798984 Y12.113100
G1 X20.685800 Y12.113100 E58.699993
G1 X20.811560 Y12.513100
G1 X20.685800 Y12.513100 E58.728738
; Parallel rasterized triangle on layer 0.0
G1 X20.685800 Y13.486900
G1 X20.685800 Y13.486900 E58.728738
G1 X20.685800 Y13.086900
G1 X20.673234 Y13.086900 E58.731610
G1 X20.685800 Y12.686900
G1 X20.660669 Y12.686900 E58.737354
G1 X20.685800 Y12.286900
G1 X20.648103 Y12.286900 E58.745971
G1 X20.685800 Y11.886900
G1 X20.635537 Y11.886900 E58.757459
G1 X20.685800 Y11.486900
G1 X20.622971 Y11.486900 E58.771820
G1 X20.685800 Y11.086900
G1 X20.610406 Y11.086900 E58.789053
G1 X20.685800 Y10.686900
G1 X20.597840 Y10.686900 E58.809158
G1 X20.685800 Y10.286900
G1 X20.585274 Y10.286900 E58.832136
G1 X20.685800 Y9.886900
G1 X20.572708 Y9.886900 E58.857985
G1 X20.685800 Y9.486900
G1 X20.560143 Y9.486900 E58.886707
G1 X20.685800 Y9.086900
G1 X20.547577 Y9.086900 E58.918301
G1 X20.685800 Y8.686900
G1 X20.535011 Y8.686900 E58.952767
G1 X20.510600 Y7.909830
G1 X20.510600 Y7.909830 E58.952767
G1 X20.626767 Y8.309830
G1 X20.523166 Y8.309830 E58.976447
; Parallel rasterized triangle on layer 0.0
G1 X20.510600 Y14.090200
G1 X20.510600 Y14.090200 E58.976447
G1 X20.626761 Y13.690200
G1 X20.510600 Y13.690200 E59.002998
G1 X20.510600 Y7.909830
G1 X20.510600 Y7.909830 E59.002998
G1 X20.523166 Y8.309830
G1 X20.510600 Y8.309830 E59.005870
G1 X20.535731 Y8.709830
G1 X20.510600 Y8.709830 E59.011615
G1 X20.548297 Y9.109830
G1 X20.510600 Y9.109830 E59.020231
G1 X20.560863 Y9.509830
G1 X20.510600 Y9.509830 E59.031720
G1 X20.573429 Y9.909830
G1 X20.510600 Y9.909830 E59.046081
G1 X20.585994 Y10.309830
G1 X20.510600 Y10.309830 E59.063314
G1 X20.598560 Y10.709830
G1 X20.510600 Y10.709830 E59.083419
G1 X20.611126 Y11.109830
G1 X20.510600 Y11.109830 E59.106396
G1 X20.623692 Y11.509830
G1 X20.510600 Y11.509830 E59.132246
G1 X20.636257 Y11.909830
G1 X20.510600 Y11.909830 E59.160967
G1 X20.648823 Y12.309830
G1 X20.510600 Y12.309830 E59.192561
G1 X20.661389 Y12.709830
G1 X20.510600 Y12.709830 E59.227027
G1 X20.673955 Y13.109830
G1 X20.510600 Y13.109830 E59.264366
; Parallel rasterized triangle on layer 0.0
G1 X20.510600 Y14.090200
G1 X20.510600 Y14.090200 E59.264366
G1 X20.510600 Y13.690200
G1 X20.498030 Y13.690200 E59.267239
G1 X20.510600 Y13.290200
G1 X20.485459 Y13.290200 E59.272985
G1 X20.510600 Y12.890200
G1 X20.472889 Y12.890200 E59.281605
G1 X20.510600 Y12.490200
G1 X20.460318 Y12.490200 E59.293098
G1 X20.510600 Y12.090200
G1 X20.447748 Y12.090200 E59.307464
G1 X20.510600 Y11.690200
G1 X20.435177 Y11.690200 E59.324704
G1 X20.510600 Y11.290200
G1 X20.422607 Y11.290200 E59.344816
G1 X20.510600 Y10.890200
G1 X20.410037 Y10.890200 E59.367802
G1 X20.510600 Y10.490200
G1 X20.397466 Y10.490200 E59.393661
G1 X20.510600 Y10.090200
G1 X20.384896 Y10.090200 E59.422394
G1 X20.510600 Y9.690200
G1 X20.372325 Y9.690200 E59.453999
G1 X20.510600 Y9.290200
G1 X20.359755 Y9.290200 E59.488478
G1 X20.510600 Y8.890200
G1 X20.347184 Y8.890200 E59.525830
G1 X20.510600 Y8.490200
G1 X20.334614 Y8.490200 E59.566056
G1 X20.510600 Y8.090200
G1 X20.322044 Y8.090200 E59.609154
G1 X20.297800 Y7.318750
G1 X20.297800 Y7.318750 E59.609154
G1 X20.441808 Y7.718750
G1 X20.310370 Y7.718750 E59.639197
; Parallel rasterized triangle on layer 0.0
G1 X20.297800 Y14.681200
G1 X20.297800 Y14.681200 E59.639197
G1 X20.441827 Y14.281200
G1 X20.297800 Y14.281200 E59.672118
G1 X20.297800 Y7.318750
G1 X20.297800 Y7.318750 E59.672118
G1 X20.310370 Y7.718750
G1 X20.297800 Y7.718750 E59.674991
G1 X20.322941 Y8.118750
G1 X20.297800 Y8.118750 E59.680737
G1 X20.335511 Y8.518750
G1 X20.297800 Y8.518750 E59.689357
G1 X20.348082 Y8.918750
G1 X20.297800 Y8.918750 E59.700850
G1 X20.360652 Y9.318750
G1 X20.297800 Y9.318750 E59.715216
G1 X20.373223 Y9.718750
G1 X20.297800 Y9.718750 E59.732456
G1 X20.385793 Y10.118750
G1 X20.297800 Y10.118750 E59.752568
