; Generated by Nick&Em's Slycer at 'I'm too lazy to import datetime'C

; Perimeter Layers: 2
; Infill: 20.0%%
; Layer Height: 0.19mm
; Nozzle Size: 0.4mm
; Support Off
; Temperature 210 degrees C

; SETUP
M107 ; fan off
M104 S210 ; set temperature
G28 X0 Y0 Z0 ; home all axes
G1 Z5 F5000 ; lift nozzle

M109 S210 ; wait for temperature to be reached
G21 ; set units to millimeters
G90 ; use absolute coordinates
M82 ; use absolute distances for extrusion
G1 Z0.400 F2400 ; put printhead at good distance from bed
G92 E0
G29 ; idk but cura does this to touch the corners
; LAYER Z=0.000000
G1 Z0.000000 ; raise print head
; PERIMETER 0
G1 X21.000000 Y11.000000
G1 X20.980300 Y11.627900 E0.143591
G1 X20.921100 Y12.253300 E0.287178
G1 X20.822900 Y12.873800 E0.430772
G1 X20.685800 Y13.486900 E0.574370
G1 X20.510600 Y14.090200 E0.717964
G1 X20.297800 Y14.681200 E0.861540
G1 X20.048300 Y15.257800 E1.005144
G1 X19.763100 Y15.817500 E1.148726
G1 X19.443300 Y16.358300 E1.292333
G1 X19.090200 Y16.877900 E1.435927
G1 X18.705100 Y17.374200 E1.579512
G1 X18.289700 Y17.845500 E1.723109
G1 X17.845500 Y18.289700 E1.866696
G1 X17.374200 Y18.705100 E2.010293
G1 X16.877900 Y19.090200 E2.153878
G1 X16.358300 Y19.443300 E2.297472
G1 X15.817500 Y19.763100 E2.441079
G1 X15.257800 Y20.048300 E2.584662
G1 X14.681200 Y20.297800 E2.728265
G1 X14.090200 Y20.510600 E2.871841
G1 X13.486900 Y20.685800 E3.015435
G1 X12.873800 Y20.822900 E3.159033
G1 X12.253300 Y20.921100 E3.302627
G1 X11.627900 Y20.980300 E3.446214
G1 X11.000000 Y21.000000 E3.589805
G1 X10.372100 Y20.980300 E3.733396
G1 X9.746670 Y20.921100 E3.876990
G1 X9.126190 Y20.822900 E4.020579
G1 X8.513100 Y20.685800 E4.164175
G1 X7.909830 Y20.510600 E4.307763
G1 X7.318760 Y20.297800 E4.451354
G1 X6.742210 Y20.048300 E4.594947
G1 X6.182460 Y19.763100 E4.738540
G1 X5.641730 Y19.443300 E4.882133
G1 X5.122150 Y19.090200 E5.025723
G1 X4.625760 Y18.705100 E5.169324
G1 X4.154530 Y18.289700 E5.312909
G1 X3.710310 Y17.845500 E5.456499
G1 X3.294870 Y17.374200 E5.600102
G1 X2.909830 Y16.877900 E5.743679
G1 X2.556720 Y16.358300 E5.887274
G1 X2.236930 Y15.817500 E6.030880
G1 X1.951730 Y15.257800 E6.174463
G1 X1.702240 Y14.681200 E6.318065
G1 X1.489440 Y14.090200 E6.461641
G1 X1.314170 Y13.486900 E6.605240
G1 X1.177130 Y12.873800 E6.748835
G1 X1.078850 Y12.253300 E6.892431
G1 X1.019730 Y11.627900 E7.036017
G1 X1.000000 Y11.000000 E7.179608
G1 X1.019730 Y10.372100 E7.323199
G1 X1.078850 Y9.746670 E7.466792
G1 X1.177130 Y9.126190 E7.610384
G1 X1.314170 Y8.513100 E7.753977
G1 X1.489440 Y7.909830 E7.897569
G1 X1.702240 Y7.318760 E8.041159
G1 X1.951730 Y6.742210 E8.184752
G1 X2.236930 Y6.182460 E8.328345
G1 X2.556720 Y5.641730 E8.471937
G1 X2.909830 Y5.122150 E8.615528
G1 X3.294870 Y4.625760 E8.759121
G1 X3.710310 Y4.154530 E8.902712
G1 X4.154530 Y3.710310 E9.046305
G1 X4.625760 Y3.294870 E9.189896
G1 X5.122150 Y2.909830 E9.333489
G1 X5.641730 Y2.556720 E9.477080
G1 X6.182460 Y2.236930 E9.620672
G1 X6.742210 Y1.951730 E9.764265
G1 X7.318760 Y1.702240 E9.907858
G1 X7.909830 Y1.489440 E10.051448
G1 X8.513100 Y1.314170 E10.195040
G1 X9.126190 Y1.177130 E10.338633
G1 X9.746670 Y1.078850 E10.482225
G1 X10.372100 Y1.019730 E10.625818
G1 X11.000000 Y1.000000 E10.769409
G1 X11.627900 Y1.019730 E10.913000
G1 X12.253300 Y1.078850 E11.056586
G1 X12.873800 Y1.177130 E11.200182
G1 X13.486900 Y1.314170 E11.343777
G1 X14.090200 Y1.489440 E11.487376
G1 X14.681200 Y1.702240 E11.630952
G1 X15.257800 Y1.951730 E11.774554
G1 X15.817500 Y2.236930 E11.918137
G1 X16.358300 Y2.556720 E12.061743
G1 X16.877900 Y2.909830 E12.205338
G1 X17.374200 Y3.294870 E12.348915
G1 X17.845500 Y3.710310 E12.492518
G1 X18.289700 Y4.154530 E12.636108
G1 X18.705100 Y4.625760 E12.779693
G1 X19.090200 Y5.122150 E12.923294
G1 X19.443300 Y5.641730 E13.066884
G1 X19.763100 Y6.182460 E13.210477
G1 X20.048300 Y6.742210 E13.354070
G1 X20.297800 Y7.318760 E13.497663
G1 X20.510600 Y7.909830 E13.641254
G1 X20.685800 Y8.513100 E13.784842
G1 X20.822900 Y9.126190 E13.928438
G1 X20.921100 Y9.746670 E14.072027
G1 X20.980300 Y10.372100 E14.215621
G1 X21.000000 Y11.000000 E14.359212
G1 X20.600197 Y11.000000
G1 X20.581286 Y11.602796 E14.497062
G1 X20.524450 Y12.203192 E14.634908
G1 X20.430179 Y12.798884 E14.772761
G1 X20.298558 Y13.387473 E14.910619
G1 X20.130365 Y13.966654 E15.048472
G1 X19.926073 Y14.534023 E15.186307
G1 X19.686548 Y15.087572 E15.324170
G1 X19.412750 Y15.624894 E15.462011
G1 X19.105735 Y16.144076 E15.599878
G1 X18.766753 Y16.642902 E15.737730
G1 X18.397047 Y17.119356 E15.875575
G1 X17.998256 Y17.571816 E16.013431
G1 X17.571816 Y17.998256 E16.151277
G1 X17.119356 Y18.397047 E16.289133
G1 X16.642902 Y18.766753 E16.426977
G1 X16.144076 Y19.105735 E16.564830
G1 X15.624894 Y19.412750 E16.702696
G1 X15.087572 Y19.686548 E16.840538
G1 X14.534023 Y19.926073 E16.978401
G1 X13.966654 Y20.130365 E17.116236
G1 X13.387473 Y20.298558 E17.254089
G1 X12.798884 Y20.430179 E17.391946
G1 X12.203192 Y20.524450 E17.529799
G1 X11.602796 Y20.581286 E17.667646
G1 X11.000000 Y20.600197 E17.805496
G1 X10.397204 Y20.581286 E17.943346
G1 X9.796778 Y20.524450 E18.081199
G1 X9.201106 Y20.430179 E18.219047
G1 X8.612527 Y20.298558 E18.356903
G1 X8.033376 Y20.130365 E18.494749
G1 X7.465937 Y19.926073 E18.632599
G1 X6.912438 Y19.686548 E18.770452
G1 X6.375067 Y19.412750 E18.908304
G1 X5.855955 Y19.105735 E19.046156
G1 X5.357148 Y18.766753 E19.184005
G1 X4.880604 Y18.397047 E19.321866
G1 X4.428214 Y17.998256 E19.459710
G1 X4.001754 Y17.571816 E19.597559
G1 X3.602923 Y17.119356 E19.735421
G1 X3.233277 Y16.642902 E19.873257
G1 X2.894285 Y16.144075 E20.011111
G1 X2.587280 Y15.624894 E20.148976
G1 X2.313482 Y15.087572 E20.286818
G1 X2.073967 Y14.534023 E20.424680
G1 X1.869675 Y13.966654 E20.562515
G1 X1.701412 Y13.387473 E20.700373
G1 X1.569851 Y12.798884 E20.838227
G1 X1.475500 Y12.203192 E20.976083
G1 X1.418744 Y11.602796 E21.113928
G1 X1.399803 Y11.000000 E21.251778
G1 X1.418744 Y10.397204 E21.389628
G1 X1.475500 Y9.796778 E21.527479
G1 X1.569851 Y9.201106 E21.665331
G1 X1.701412 Y8.612527 E21.803183
G1 X1.869675 Y8.033376 E21.941034
G1 X2.073967 Y7.465937 E22.078884
G1 X2.313482 Y6.912438 E22.216735
G1 X2.587280 Y6.375067 E22.354587
G1 X2.894285 Y5.855955 E22.492439
G1 X3.233277 Y5.357148 E22.630289
G1 X3.602923 Y4.880604 E22.768141
G1 X4.001754 Y4.428214 E22.905991
G1 X4.428214 Y4.001754 E23.043844
G1 X4.880604 Y3.602923 E23.181694
G1 X5.357148 Y3.233277 E23.319546
G1 X5.855955 Y2.894285 E23.457396
G1 X6.375067 Y2.587280 E23.595248
G1 X6.912438 Y2.313482 E23.733100
G1 X7.465937 Y2.073967 E23.870951
G1 X8.033376 Y1.869675 E24.008801
G1 X8.612527 Y1.701412 E24.146652
G1 X9.201106 Y1.569851 E24.284504
G1 X9.796778 Y1.475500 E24.422355
G1 X10.397204 Y1.418744 E24.560207
G1 X11.000000 Y1.399803 E24.698057
G1 X11.602796 Y1.418744 E24.835907
G1 X12.203192 Y1.475500 E24.973752
G1 X12.798884 Y1.569851 E25.111608
G1 X13.387473 Y1.701412 E25.249462
G1 X13.966654 Y1.869675 E25.387320
G1 X14.534023 Y2.073967 E25.525155
G1 X15.087572 Y2.313482 E25.663017
G1 X15.624894 Y2.587280 E25.800859
G1 X16.144075 Y2.894285 E25.938724
G1 X16.642902 Y3.233277 E26.076578
G1 X17.119356 Y3.602923 E26.214414
G1 X17.571816 Y4.001754 E26.352276
G1 X17.998256 Y4.428214 E26.490125
G1 X18.397047 Y4.880604 E26.627969
G1 X18.766753 Y5.357148 E26.765830
G1 X19.105735 Y5.855955 E26.903679
G1 X19.412750 Y6.375067 E27.041531
G1 X19.686548 Y6.912438 E27.179383
G1 X19.926073 Y7.465937 E27.317235
G1 X20.130365 Y8.033376 E27.455086
G1 X20.298558 Y8.612527 E27.592932
G1 X20.430179 Y9.201106 E27.730787
G1 X20.524450 Y9.796778 E27.868636
G1 X20.581286 Y10.397204 E28.006489
G1 X20.600197 Y11.000000 E28.144339
; PERIMETER 1
G1 X15.619400 Y12.913400
G1 X16.000000 Y11.000000 E28.590256
G1 X15.619400 Y9.086580 E29.036177
G1 X14.535500 Y7.464470 E29.482101
G1 X12.913400 Y6.380600 E29.928019
G1 X11.000000 Y6.000000 E30.373936
G1 X9.086580 Y6.380600 E30.819858
G1 X7.464470 Y7.464470 E31.265778
G1 X6.380600 Y9.086580 E31.711698
G1 X6.000000 Y11.000000 E32.157619
G1 X6.380600 Y12.913400 E32.603536
G1 X7.464470 Y14.535500 E33.049454
G1 X9.086580 Y15.619400 E33.495378
G1 X11.000000 Y16.000000 E33.941300
G1 X12.913400 Y15.619400 E34.387217
G1 X14.535500 Y14.535500 E34.833139
G1 X15.619400 Y12.913400 E35.279061
G1 X15.981851 Y13.063532
G1 X16.392314 Y11.000000 E35.759966
G1 X15.981851 Y8.936448 E36.240875
G1 X14.812908 Y7.187062 E36.721788
G1 X13.063532 Y6.018149 E37.202694
G1 X11.000000 Y5.607686 E37.683599
G1 X8.936448 Y6.018149 E38.164509
G1 X7.187062 Y7.187062 E38.645417
G1 X6.018149 Y8.936448 E39.126325
G1 X5.607686 Y11.000000 E39.607235
G1 X6.018149 Y13.063532 E40.088140
G1 X7.187062 Y14.812908 E40.569046
G1 X8.936448 Y15.981851 E41.049959
G1 X11.000000 Y16.392314 E41.530868
G1 X13.063532 Y15.981851 E42.011773
G1 X14.812908 Y14.812908 E42.492683
G1 X15.981851 Y13.063532 E42.973594
; INFILL
; NEW INFILL LINE
G1 X5.279026 Y3.799605
G1 X16.721 Y3.800 E45.58889
; NEW INFILL LINE
G1 X3.415734 Y5.799605
G1 X8.571 Y5.800 E46.76723
G1 X13.429 Y5.800
G1 X18.584 Y5.800 E47.94557
; NEW INFILL LINE
G1 X2.378553 Y7.799605
G1 X6.315 Y7.800 E48.84533
G1 X15.685 Y7.800
G1 X19.621 Y7.800 E49.74510
; NEW INFILL LINE
G1 X1.879639 Y9.799605
G1 X5.454 Y9.800 E50.56213
G1 X16.546 Y9.800
G1 X20.120 Y9.800 E51.37915
; NEW INFILL LINE
G1 X1.838735 Y11.799605
G1 X5.374 Y11.800 E52.18731
G1 X16.626 Y11.800
G1 X20.161 Y11.800 E52.99547
; NEW INFILL LINE
G1 X2.237271 Y13.799605
G1 X6.047 Y13.800 E53.86631
G1 X15.953 Y13.800
G1 X19.763 Y13.800 E54.73717
; NEW INFILL LINE
G1 X3.154832 Y15.799605
G1 X7.971 Y15.800 E55.83804
G1 X14.029 Y15.800
G1 X18.845 Y15.800 E56.93892
; NEW INFILL LINE
G1 X4.807162 Y17.799605
G1 X17.193 Y17.800 E59.76994
; NEW INFILL LINE
G1 X8.327285 Y19.799605
G1 X13.673 Y19.800 E60.99175
; Parallel rasterized triangle on layer 0.0
G1 X20.980300 Y10.372100
G1 X20.980300 Y10.372100 E60.991754
G1 X17.807629 Y10.772100
G1 X20.992850 Y10.772100 E61.719804
; Parallel rasterized triangle on layer 0.0
G1 X16.000000 Y11.000000
G1 X16.000000 Y11.000000 E61.719804
G1 X19.172671 Y10.600000
G1 X17.570568 Y10.600000 E62.085999
G1 X20.921100 Y9.746670
G1 X20.921100 Y9.746670 E62.085999
G1 X20.958962 Y10.146670
G1 X19.350532 Y10.146670 E62.453640
; Parallel rasterized triangle on layer 0.0
G1 X20.980300 Y11.627900
G1 X20.980300 Y11.627900 E62.453640
G1 X20.992850 Y11.227900
G1 X17.807629 Y11.227900 E63.181691
; Parallel rasterized triangle on layer 0.0
G1 X16.000000 Y11.000000
G1 X16.000000 Y11.000000 E63.181691
G1 X17.570568 Y10.600000
G1 X17.029539 Y10.600000 E63.305354
G1 X19.141136 Y10.200000
G1 X18.059077 Y10.200000 E63.552682
G1 X20.711704 Y9.800000
G1 X19.088616 Y9.800000 E63.923674
G1 X20.822900 Y9.126190
G1 X20.822900 Y9.126190 E63.923674
G1 X20.886206 Y9.526190
G1 X19.793361 Y9.526190 E64.173467
; Parallel rasterized triangle on layer 0.0
G1 X20.921100 Y12.253300
G1 X20.921100 Y12.253300 E64.173467
G1 X20.958964 Y11.853300
G1 X19.350494 Y11.853300 E64.541117
G1 X16.000000 Y11.000000
G1 X16.000000 Y11.000000 E64.541117
G1 X19.172671 Y11.400000
G1 X17.570606 Y11.400000 E64.907303
; Parallel rasterized triangle on layer 0.0
G1 X20.822900 Y9.126190
G1 X20.822900 Y9.126190 E64.907303
G1 X20.685800 Y8.513100
G1 X20.685800 Y8.513100 E64.907303
G1 X17.152006 Y8.913100
G1 X20.775249 Y8.913100 E65.735473
; Parallel rasterized triangle on layer 0.0
G1 X20.822900 Y12.873800
G1 X20.822900 Y12.873800 E65.735473
G1 X20.886204 Y12.473800
G1 X19.793356 Y12.473800 E65.985267
G1 X16.000000 Y11.000000
G1 X16.000000 Y11.000000 E65.985267
G1 X17.570606 Y11.400000
G1 X17.029544 Y11.400000 E66.108938
G1 X19.141211 Y11.800000
G1 X18.059088 Y11.800000 E66.356280
G1 X20.711817 Y12.200000
G1 X19.088633 Y12.200000 E66.727294
; Parallel rasterized triangle on layer 0.0
G1 X15.619400 Y9.086580
G1 X15.619400 Y9.086580 E66.727294
G1 X19.153194 Y8.686580
G1 X17.282013 Y8.686580 E67.154992
G1 X20.510600 Y7.909830
G1 X20.510600 Y7.909830 E67.154992
G1 X20.626767 Y8.309830
G1 X18.847987 Y8.309830 E67.561570
; Parallel rasterized triangle on layer 0.0
G1 X15.619400 Y12.913400
G1 X15.619400 Y12.913400 E67.561570
G1 X16.000000 Y11.000000
G1 X16.000000 Y11.000000 E67.561570
G1 X17.029544 Y11.400000
G1 X15.920435 Y11.400000 E67.815081
G1 X18.059088 Y11.800000
G1 X15.840870 Y11.800000 E68.322102
G1 X19.088633 Y12.200000
G1 X15.761304 Y12.200000 E69.082635
G1 X20.118177 Y12.600000
G1 X15.681739 Y12.600000 E70.096677
; Parallel rasterized triangle on layer 0.0
G1 X15.619400 Y9.086580
G1 X15.619400 Y9.086580 E70.096677
G1 X17.282013 Y8.686580
G1 X16.677969 Y8.686580 E70.234745
G1 X18.944626 Y8.286580
G1 X17.736539 Y8.286580 E70.510879
G1 X20.297800 Y7.318760
G1 X20.297800 Y7.318760 E70.510879
G1 X20.441810 Y7.718760
G1 X19.239231 Y7.718760 E70.785754
; Parallel rasterized triangle on layer 0.0
G1 X20.685800 Y13.486900
G1 X20.685800 Y13.486900 E70.785754
G1 X17.152130 Y13.086900
G1 X20.775247 Y13.086900 E71.613895
G1 X20.822900 Y12.873800
G1 X20.822900 Y12.873800 E71.613895
; Parallel rasterized triangle on layer 0.0
G1 X15.619400 Y9.086580
G1 X15.619400 Y9.086580 E71.613895
G1 X16.677969 Y8.686580
G1 X16.375066 Y8.686580 E71.683130
G1 X17.736539 Y8.286580
G1 X17.130731 Y8.286580 E71.821601
G1 X18.795108 Y7.886580
G1 X17.886397 Y7.886580 E72.029306
G1 X19.853677 Y7.486580
G1 X18.642063 Y7.486580 E72.306246
G1 X20.048300 Y6.742210
G1 X20.048300 Y6.742210 E72.306246
G1 X20.221399 Y7.142210
G1 X19.292634 Y7.142210 E72.518535
; Parallel rasterized triangle on layer 0.0
G1 X20.510600 Y14.090200
G1 X20.510600 Y14.090200 E72.518535
G1 X20.626761 Y13.690200
G1 X18.848058 Y13.690200 E72.925096
G1 X15.619400 Y12.913400
G1 X15.619400 Y12.913400 E72.925096
G1 X19.153070 Y13.313400
G1 X17.281942 Y13.313400 E73.352783
; Parallel rasterized triangle on layer 0.0
G1 X15.619400 Y9.086580
G1 X15.619400 Y9.086580 E73.352783
G1 X16.375066 Y8.686580
G1 X16.190134 Y8.686580 E73.395053
G1 X17.130731 Y8.286580
G1 X16.760868 Y8.286580 E73.479593
G1 X17.886397 Y7.886580
G1 X17.331602 Y7.886580 E73.606403
G1 X18.642063 Y7.486580
G1 X17.902336 Y7.486580 E73.775484
G1 X19.397729 Y7.086580
G1 X18.473070 Y7.086580 E73.986834
G1 X19.763100 Y6.182460
G1 X19.763100 Y6.182460 E73.986834
G1 X19.966905 Y6.582460
G1 X19.192366 Y6.582460 E74.163872
; Parallel rasterized triangle on layer 0.0
G1 X20.297800 Y14.681200
G1 X20.297800 Y14.681200 E74.163872
G1 X20.441827 Y14.281200
G1 X19.239219 Y14.281200 E74.438754
G1 X15.619400 Y12.913400
G1 X15.619400 Y12.913400 E74.438754
G1 X17.281942 Y13.313400
G1 X16.677981 Y13.313400 E74.576802
G1 X18.944485 Y13.713400
G1 X17.736563 Y13.713400 E74.852899
; Parallel rasterized triangle on layer 0.0
G1 X15.619400 Y9.086580
G1 X15.619400 Y9.086580 E74.852899
G1 X16.190134 Y8.686580
G1 X16.063414 Y8.686580 E74.881863
G1 X16.760868 Y8.286580
G1 X16.507427 Y8.286580 E74.939793
G1 X17.331602 Y7.886580
G1 X16.951441 Y7.886580 E75.026687
G1 X17.902336 Y7.486580
G1 X17.395454 Y7.486580 E75.142545
G1 X18.473070 Y7.086580
G1 X17.839468 Y7.086580 E75.287369
G1 X19.043804 Y6.686580
G1 X18.283481 Y6.686580 E75.461157
G1 X19.614538 Y6.286580
G1 X18.727495 Y6.286580 E75.663909
G1 X19.443300 Y5.641730
G1 X19.443300 Y5.641730 E75.663909
G1 X19.679869 Y6.041730
G1 X18.999286 Y6.041730 E75.819471
; Parallel rasterized triangle on layer 0.0
G1 X20.048300 Y15.257800
G1 X20.048300 Y15.257800 E75.819471
G1 X20.221384 Y14.857800
G1 X19.292644 Y14.857800 E76.031755
G1 X15.619400 Y12.913400
G1 X15.619400 Y12.913400 E76.031755
G1 X16.677981 Y13.313400
G1 X16.375056 Y13.313400 E76.100995
G1 X17.736563 Y13.713400
G1 X17.130712 Y13.713400 E76.239475
G1 X18.795144 Y14.113400
G1 X17.886368 Y14.113400 E76.447195
G1 X19.853725 Y14.513400
G1 X18.642024 Y14.513400 E76.724155
; Parallel rasterized triangle on layer 0.0
G1 X14.535500 Y7.464470
G1 X14.535500 Y7.464470 E76.724155
G1 X15.612516 Y7.064470
G1 X15.313310 Y7.064470 E76.792545
G1 X16.689532 Y6.664470
G1 X16.091120 Y6.664470 E76.929325
G1 X17.766548 Y6.264470
G1 X16.868930 Y6.264470 E77.134495
G1 X18.843564 Y5.864470
G1 X17.646740 Y5.864470 E77.408054
