; Generated by Nick&Em's Slycer at 'I'm too lazy to import datetime'C

; Perimeter Layers: 2
; Infill: 20.0%%
; Layer Height: 0.19mm
; Nozzle Size: 0.4mm
; Support Off
; Temperature 210 degrees C

; SETUP
M107 ; fan off
M104 S210 ; set temperature
G28 X0 Y0 Z0 ; home all axes
G1 Z5 F5000 ; lift nozzle

M109 S210 ; wait for temperature to be reached
G21 ; set units to millimeters
G90 ; use absolute coordinates
M82 ; use absolute distances for extrusion
G1 Z0.400 F2400 ; put printhead at good distance from bed
G92 E0
G29 ; idk but cura does this to touch the corners
; LAYER Z=0.190000
G1 Z0.190000 ; raise print head
; PERIMETER 0
G1 X11.914922 Y10.000000
G1 X11.913627 Y10.042405 E0.009697
G1 X11.911184 Y10.120245 E0.027498
G1 X11.907168 Y10.162521 E0.037204
G1 X11.899838 Y10.240020 E0.054998
G1 X11.893188 Y10.281907 E0.064692
G1 X11.881029 Y10.358838 E0.082494
G1 X11.871788 Y10.400250 E0.092193
G1 X11.854800 Y10.476215 E0.109985
G1 X11.842968 Y10.516979 E0.119687
G1 X11.821263 Y10.591751 E0.137483
G1 X11.806884 Y10.631695 E0.147187
G1 X11.780463 Y10.704933 E0.164983
G1 X11.763622 Y10.743883 E0.174682
G1 X11.732713 Y10.815360 E0.192482
G1 X11.713411 Y10.853145 E0.202180
G1 X11.678070 Y10.922519 E0.219976
G1 X11.656479 Y10.959051 E0.229676
G1 X11.616820 Y11.026096 E0.247481
G1 X11.592984 Y11.061203 E0.257180
G1 X11.549234 Y11.125578 E0.274971
G1 X11.523195 Y11.159131 E0.284678
G1 X11.475468 Y11.220664 E0.302478
G1 X11.447443 Y11.252489 E0.312171
G1 X11.395966 Y11.310898 E0.329966
G1 X11.365955 Y11.340910 E0.339667
G1 X11.310898 Y11.395966 E0.357464
G1 X11.279073 Y11.423991 E0.367157
G1 X11.220664 Y11.475468 E0.384953
G1 X11.187112 Y11.501507 E0.394660
G1 X11.125578 Y11.549234 E0.412460
G1 X11.090471 Y11.573071 E0.422159
G1 X11.026096 Y11.616820 E0.439950
G1 X10.989564 Y11.638412 E0.449649
G1 X10.922519 Y11.678070 E0.467454
G1 X10.884735 Y11.697373 E0.477152
G1 X10.815360 Y11.732713 E0.494948
G1 X10.776410 Y11.749555 E0.504648
G1 X10.704933 Y11.780463 E0.522447
G1 X10.664989 Y11.794843 E0.532151
G1 X10.591751 Y11.821263 E0.549947
G1 X10.550987 Y11.833095 E0.559649
G1 X10.476215 Y11.854800 E0.577445
G1 X10.434803 Y11.864041 E0.587144
G1 X10.358838 Y11.881029 E0.604936
G1 X10.316951 Y11.887679 E0.614630
G1 X10.240020 Y11.899838 E0.632433
G1 X10.197745 Y11.903854 E0.642139
G1 X10.120245 Y11.911184 E0.659932
G1 X10.077840 Y11.912479 E0.669629
G1 X10.000000 Y11.914922 E0.687430
G1 X9.957582 Y11.913627 E0.697130
G1 X9.879759 Y11.911184 E0.714927
G1 X9.837514 Y11.907168 E0.724627
G1 X9.759991 Y11.899838 E0.742425
G1 X9.718074 Y11.893188 E0.752126
G1 X9.641172 Y11.881029 E0.769922
G1 X9.599756 Y11.871788 E0.779622
G1 X9.523767 Y11.854800 E0.797419
G1 X9.483016 Y11.842968 E0.807118
G1 X9.408244 Y11.821263 E0.824914
G1 X9.368318 Y11.806884 E0.834614
G1 X9.295057 Y11.780463 E0.852415
G1 X9.256107 Y11.763622 E0.862115
G1 X9.184647 Y11.732713 E0.879911
G1 X9.146837 Y11.713411 E0.889614
G1 X9.077462 Y11.678070 E0.907410
G1 X9.040934 Y11.656479 E0.917109
G1 X8.973912 Y11.616820 E0.934909
G1 X8.938814 Y11.592984 E0.944607
G1 X8.874416 Y11.549234 E0.962402
G1 X8.840885 Y11.523195 E0.972106
G1 X8.779357 Y11.475468 E0.989904
G1 X8.747523 Y11.447443 E0.999599
G1 X8.689121 Y11.395966 E1.017393
G1 X8.659113 Y11.365955 E1.027094
G1 X8.604051 Y11.310898 E1.044892
G1 X8.575987 Y11.279073 E1.054590
G1 X8.524499 Y11.220664 E1.072387
G1 X8.498490 Y11.187112 E1.082091
G1 X8.450763 Y11.125578 E1.099890
G1 X8.426909 Y11.090471 E1.109592
G1 X8.383148 Y11.026096 E1.127384
G1 X8.361544 Y10.989564 E1.137085
G1 X8.321908 Y10.922519 E1.154887
G1 X8.302644 Y10.884735 E1.164581
G1 X8.267292 Y10.815360 E1.182379
G1 X8.250438 Y10.776410 E1.192079
G1 X8.219518 Y10.704933 E1.209880
G1 X8.205143 Y10.664989 E1.219583
G1 X8.178762 Y10.591751 E1.237376
G1 X8.166922 Y10.550987 E1.247079
G1 X8.145200 Y10.476215 E1.264876
G1 X8.135942 Y10.434803 E1.274575
G1 X8.118959 Y10.358838 E1.292367
G1 X8.112322 Y10.316951 E1.302061
G1 X8.100140 Y10.240020 E1.319864
G1 X8.096146 Y10.197745 E1.329570
G1 X8.088817 Y10.120245 E1.347364
G1 X8.087487 Y10.077840 E1.357061
G1 X8.085043 Y10.000000 E1.374862
G1 X8.086373 Y9.957582 E1.384562
G1 X8.088817 Y9.879759 E1.402359
G1 X8.092811 Y9.837514 E1.412058
G1 X8.100140 Y9.759991 E1.429856
G1 X8.106778 Y9.718074 E1.439557
G1 X8.118959 Y9.641172 E1.457354
G1 X8.128218 Y9.599756 E1.467054
G1 X8.145200 Y9.523767 E1.484851
G1 X8.157041 Y9.483016 E1.494551
G1 X8.178762 Y9.408244 E1.512348
G1 X8.193138 Y9.368318 E1.522048
G1 X8.219518 Y9.295057 E1.539846
G1 X8.236372 Y9.256107 E1.549546
G1 X8.267292 Y9.184647 E1.567343
G1 X8.286556 Y9.146837 E1.577043
G1 X8.321908 Y9.077462 E1.594840
G1 X8.343512 Y9.040934 E1.604540
G1 X8.383148 Y8.973912 E1.622338
G1 X8.407002 Y8.938814 E1.632038
G1 X8.450763 Y8.874416 E1.649834
G1 X8.476772 Y8.840885 E1.659534
G1 X8.524499 Y8.779357 E1.677332
G1 X8.552563 Y8.747523 E1.687033
G1 X8.604051 Y8.689121 E1.704829
G1 X8.634058 Y8.659113 E1.714529
G1 X8.689121 Y8.604051 E1.732327
G1 X8.720954 Y8.575987 E1.742028
G1 X8.779357 Y8.524499 E1.759824
G1 X8.812888 Y8.498490 E1.769523
G1 X8.874416 Y8.450763 E1.787322
G1 X8.909515 Y8.426909 E1.797022
G1 X8.973912 Y8.383148 E1.814818
G1 X9.010440 Y8.361544 E1.824518
G1 X9.077462 Y8.321908 E1.842316
G1 X9.115273 Y8.302644 E1.852016
G1 X9.184647 Y8.267292 E1.869813
G1 X9.223597 Y8.250438 E1.879513
G1 X9.295057 Y8.219518 E1.897310
G1 X9.334983 Y8.205143 E1.907010
G1 X9.408244 Y8.178762 E1.924808
G1 X9.448995 Y8.166922 E1.934508
G1 X9.523767 Y8.145200 E1.952305
G1 X9.565184 Y8.135942 E1.962005
G1 X9.641172 Y8.118959 E1.979802
G1 X9.683089 Y8.112322 E1.989503
G1 X9.759991 Y8.100140 E2.007300
G1 X9.802237 Y8.096146 E2.016999
G1 X9.879759 Y8.088817 E2.034797
G1 X9.922177 Y8.087487 E2.044497
G1 X10.000000 Y8.085043 E2.062294
G1 X10.042405 Y8.086373 E2.071992
G1 X10.120245 Y8.088817 E2.089793
G1 X10.162521 Y8.092811 E2.099499
G1 X10.240020 Y8.100140 E2.117292
G1 X10.281907 Y8.106778 E2.126985
G1 X10.358838 Y8.118959 E2.144789
G1 X10.400250 Y8.128218 E2.154488
G1 X10.476215 Y8.145200 E2.172280
G1 X10.516979 Y8.157041 E2.181983
G1 X10.591751 Y8.178762 E2.199780
G1 X10.631695 Y8.193138 E2.209483
G1 X10.704933 Y8.219518 E2.227276
G1 X10.743883 Y8.236372 E2.236977
G1 X10.815360 Y8.267292 E2.254778
G1 X10.853145 Y8.286556 E2.264472
G1 X10.922519 Y8.321908 E2.282269
G1 X10.959051 Y8.343512 E2.291970
G1 X11.026096 Y8.383148 E2.309772
G1 X11.061203 Y8.407002 E2.319474
G1 X11.125578 Y8.450763 E2.337266
G1 X11.159131 Y8.476772 E2.346969
G1 X11.220664 Y8.524499 E2.364769
G1 X11.252489 Y8.552563 E2.374467
G1 X11.310898 Y8.604051 E2.392265
G1 X11.340910 Y8.634058 E2.401965
G1 X11.395966 Y8.689121 E2.419763
G1 X11.423991 Y8.720954 E2.429457
G1 X11.475468 Y8.779357 E2.447252
G1 X11.501507 Y8.812888 E2.456956
G1 X11.549234 Y8.874416 E2.474754
G1 X11.573071 Y8.909515 E2.484452
G1 X11.616820 Y8.973912 E2.502247
G1 X11.638412 Y9.010440 E2.511945
G1 X11.678070 Y9.077462 E2.529746
G1 X11.697373 Y9.115273 E2.539449
G1 X11.732713 Y9.184647 E2.557245
G1 X11.749555 Y9.223597 E2.566945
G1 X11.780463 Y9.295057 E2.584741
G1 X11.794843 Y9.334983 E2.594441
G1 X11.821263 Y9.408244 E2.612242
G1 X11.833095 Y9.448995 E2.621941
G1 X11.854800 Y9.523767 E2.639737
G1 X11.864041 Y9.565184 E2.649436
G1 X11.881029 Y9.641172 E2.667234
G1 X11.887679 Y9.683089 E2.676935
G1 X11.899838 Y9.759991 E2.694731
G1 X11.903854 Y9.802237 E2.704430
G1 X11.911184 Y9.879759 E2.722229
G1 X11.912479 Y9.922177 E2.731929
G1 X11.914922 Y10.000000 E2.749726
G1 X11.515120 Y10.000000
G1 X11.513824 Y10.029841 E2.756553
G1 X11.512170 Y10.095142 E2.771484
G1 X11.508943 Y10.124878 E2.778320
G1 X11.503188 Y10.189912 E2.793243
G1 X11.498113 Y10.219333 E2.800068
G1 X11.488308 Y10.283923 E2.815000
G1 X11.481421 Y10.312993 E2.821829
G1 X11.467557 Y10.376789 E2.836751
G1 X11.458850 Y10.405383 E2.843583
G1 X11.441028 Y10.468206 E2.858509
G1 X11.430531 Y10.496200 E2.865343
G1 X11.408736 Y10.557756 E2.880269
G1 X11.396520 Y10.585024 E2.887098
G1 X11.370961 Y10.645133 E2.902028
G1 X11.357008 Y10.671549 E2.908856
G1 X11.327720 Y10.729913 E2.923782
G1 X11.312182 Y10.755435 E2.930612
G1 X11.279256 Y10.811871 E2.945547
G1 X11.262152 Y10.836370 E2.952376
G1 X11.225787 Y10.890580 E2.967296
G1 X11.207133 Y10.913968 E2.974134
G1 X11.167415 Y10.965820 E2.989064
G1 X11.147399 Y10.987964 E2.995887
G1 X11.104523 Y11.037214 E3.010812
G1 X11.083112 Y11.058067 E3.017643
G1 X11.037214 Y11.104523 E3.032570
G1 X11.014548 Y11.123947 E3.039393
G1 X10.965820 Y11.167415 E3.054319
G1 X10.941949 Y11.185445 E3.061156
G1 X10.890580 Y11.225787 E3.076086
G1 X10.865637 Y11.242239 E3.082916
G1 X10.811871 Y11.279256 E3.097836
G1 X10.785948 Y11.294115 E3.104666
G1 X10.729913 Y11.327720 E3.119600
G1 X10.703139 Y11.340970 E3.126429
G1 X10.645133 Y11.370961 E3.141354
G1 X10.617551 Y11.382453 E3.148184
G1 X10.557756 Y11.408736 E3.163114
G1 X10.529494 Y11.418491 E3.169947
G1 X10.468206 Y11.441028 E3.184873
G1 X10.439391 Y11.448978 E3.191706
G1 X10.376789 Y11.467557 E3.206632
G1 X10.347546 Y11.473674 E3.213460
G1 X10.283923 Y11.488308 E3.228383
G1 X10.254377 Y11.492604 E3.235207
G1 X10.189912 Y11.503188 E3.250139
G1 X10.160102 Y11.505629 E3.256976
G1 X10.095142 Y11.512170 E3.271899
G1 X10.065276 Y11.512676 E3.278726
G1 X10.000000 Y11.515120 E3.293657
G1 X9.970146 Y11.513824 E3.300487
G1 X9.904863 Y11.512170 E3.315414
G1 X9.875157 Y11.508943 E3.322243
G1 X9.810100 Y11.503188 E3.337172
G1 X9.780648 Y11.498113 E3.344003
G1 X9.716087 Y11.488308 E3.358929
G1 X9.687013 Y11.481421 E3.365758
G1 X9.623194 Y11.467557 E3.380686
G1 X9.594613 Y11.458850 E3.387515
G1 X9.531790 Y11.441028 E3.402441
G1 X9.503813 Y11.430531 E3.409271
G1 X9.442234 Y11.408736 E3.424202
G1 X9.414966 Y11.396520 E3.431031
G1 X9.354875 Y11.370961 E3.445957
G1 X9.328433 Y11.357008 E3.452791
G1 X9.270068 Y11.327720 E3.467717
G1 X9.244551 Y11.312182 E3.474546
G1 X9.188137 Y11.279256 E3.489476
G1 X9.163647 Y11.262152 E3.496304
G1 X9.109414 Y11.225787 E3.511229
G1 X9.086048 Y11.207133 E3.518063
G1 X9.034201 Y11.167415 E3.532991
G1 X9.012049 Y11.147399 E3.539815
G1 X8.962804 Y11.104523 E3.554740
G1 X8.941956 Y11.083112 E3.561570
G1 X8.895495 Y11.037214 E3.576498
G1 X8.876031 Y11.014548 E3.583327
G1 X8.832552 Y10.965820 E3.598254
G1 X8.814552 Y10.941949 E3.605088
G1 X8.774210 Y10.890580 E3.620017
G1 X8.757741 Y10.865637 E3.626849
G1 X8.720713 Y10.811871 E3.641771
G1 X8.705841 Y10.785948 E3.648602
G1 X8.672258 Y10.729913 E3.663534
G1 X8.659047 Y10.703139 E3.670358
G1 X8.629045 Y10.645133 E3.685285
G1 X8.617540 Y10.617551 E3.692116
G1 X8.591245 Y10.557756 E3.707047
G1 X8.581495 Y10.529494 E3.713880
G1 X8.558997 Y10.468206 E3.728803
G1 X8.551039 Y10.439391 E3.735636
G1 X8.532443 Y10.376789 E3.750563
G1 X8.526309 Y10.347546 E3.757392
G1 X8.511680 Y10.283923 E3.772314
G1 X8.507397 Y10.254377 E3.779138
G1 X8.496790 Y10.189912 E3.794071
G1 X8.494371 Y10.160102 E3.800907
G1 X8.487830 Y10.095142 E3.815830
G1 X8.487289 Y10.065276 E3.822658
G1 X8.484846 Y10.000000 E3.837589
G1 X8.486176 Y9.970146 E3.844419
G1 X8.487830 Y9.904863 E3.859346
G1 X8.491036 Y9.875157 E3.866175
G1 X8.496790 Y9.810100 E3.881103
G1 X8.501853 Y9.780648 E3.887934
G1 X8.511680 Y9.716087 E3.902861
G1 X8.518584 Y9.687013 E3.909691
G1 X8.532443 Y9.623194 E3.924618
G1 X8.541158 Y9.594613 E3.931448
G1 X8.558997 Y9.531790 E3.946375
G1 X8.569490 Y9.503813 E3.953205
G1 X8.591245 Y9.442234 E3.968133
G1 X8.603474 Y9.414966 E3.974964
G1 X8.629045 Y9.354875 E3.989891
G1 X8.642959 Y9.328433 E3.996720
G1 X8.672258 Y9.270068 E4.011647
G1 X8.687809 Y9.244551 E4.018477
G1 X8.720713 Y9.188137 E4.033405
G1 X8.737834 Y9.163647 E4.040235
G1 X8.774210 Y9.109414 E4.055161
G1 X8.792834 Y9.086048 E4.061991
G1 X8.832552 Y9.034201 E4.076919
G1 X8.852607 Y9.012049 E4.083750
G1 X8.895495 Y8.962804 E4.098676
G1 X8.916901 Y8.941956 E4.105506
G1 X8.962804 Y8.895495 E4.120435
G1 X8.985480 Y8.876031 E4.127265
G1 X9.034201 Y8.832552 E4.142191
G1 X9.058051 Y8.814552 E4.149021
G1 X9.109414 Y8.774210 E4.163949
G1 X9.134348 Y8.757741 E4.170779
G1 X9.188137 Y8.720713 E4.185705
G1 X9.214056 Y8.705841 E4.192536
G1 X9.270068 Y8.672258 E4.207463
G1 X9.296868 Y8.659047 E4.214293
G1 X9.354875 Y8.629045 E4.229220
G1 X9.382457 Y8.617540 E4.236051
G1 X9.442234 Y8.591245 E4.250978
G1 X9.470479 Y8.581495 E4.257808
G1 X9.531790 Y8.558997 E4.272735
G1 X9.560592 Y8.551039 E4.279565
G1 X9.623194 Y8.532443 E4.294492
G1 X9.652441 Y8.526309 E4.301323
G1 X9.716087 Y8.511680 E4.316250
G1 X9.745663 Y8.507397 E4.323080
G1 X9.810100 Y8.496790 E4.338007
G1 X9.839880 Y8.494371 E4.344836
G1 X9.904863 Y8.487830 E4.359764
G1 X9.934741 Y8.487289 E4.366595
G1 X10.000000 Y8.484846 E4.381522
G1 X10.029841 Y8.486176 E4.388349
G1 X10.095142 Y8.487830 E4.403280
G1 X10.124878 Y8.491036 E4.410116
G1 X10.189912 Y8.496790 E4.425039
G1 X10.219333 Y8.501853 E4.431863
G1 X10.283923 Y8.511680 E4.446796
G1 X10.312993 Y8.518584 E4.453626
G1 X10.376789 Y8.532443 E4.468548
G1 X10.405383 Y8.541158 E4.475380
G1 X10.468206 Y8.558997 E4.490307
G1 X10.496200 Y8.569490 E4.497141
G1 X10.557756 Y8.591245 E4.512064
G1 X10.585024 Y8.603474 E4.518894
G1 X10.645133 Y8.629045 E4.533825
G1 X10.671549 Y8.642959 E4.540649
G1 X10.729913 Y8.672258 E4.555576
G1 X10.755435 Y8.687809 E4.562408
G1 X10.811871 Y8.720713 E4.577340
G1 X10.836370 Y8.737834 E4.584171
G1 X10.890580 Y8.774210 E4.599093
G1 X10.913968 Y8.792834 E4.605927
G1 X10.965820 Y8.832552 E4.620856
G1 X10.987964 Y8.852607 E4.627685
G1 X11.037214 Y8.895495 E4.642612
G1 X11.058067 Y8.916901 E4.649443
G1 X11.104523 Y8.962804 E4.664371
G1 X11.123947 Y8.985480 E4.671195
G1 X11.167415 Y9.034201 E4.686120
G1 X11.185445 Y9.058051 E4.692953
G1 X11.225787 Y9.109414 E4.707882
G1 X11.242239 Y9.134348 E4.714710
G1 X11.279256 Y9.188137 E4.729634
G1 X11.294115 Y9.214056 E4.736463
G1 X11.327720 Y9.270068 E4.751394
G1 X11.340970 Y9.296868 E4.758227
G1 X11.370961 Y9.354875 E4.773153
G1 X11.382453 Y9.382457 E4.779983
G1 X11.408736 Y9.442234 E4.794909
G1 X11.418491 Y9.470479 E4.801739
G1 X11.441028 Y9.531790 E4.816670
G1 X11.448978 Y9.560592 E4.823499
G1 X11.467557 Y9.623194 E4.838425
G1 X11.473674 Y9.652441 E4.845254
G1 X11.488308 Y9.716087 E4.860182
G1 X11.492604 Y9.745663 E4.867013
G1 X11.503188 Y9.810100 E4.881939
G1 X11.505629 Y9.839880 E4.888768
G1 X11.512170 Y9.904863 E4.903697
G1 X11.512676 Y9.934741 E4.910527
G1 X11.515120 Y10.000000 E4.925454
; INFILL
; NEW INFILL LINE
G1 X9.322670 Y10.884649
G1 X10.678 Y10.885 E5.23517
; Parallel rasterized triangle on layer 0.19
G1 X10.313500 Y10.019700
G1 X10.313500 Y10.019700 E5.235175
G1 X10.313500 Y9.980280
G1 X10.313500 Y9.980280 E5.235175
; Parallel rasterized triangle on layer 0.19
G1 X10.313500 Y10.019700
G1 X10.313500 Y10.019700 E5.235175
G1 X10.311600 Y9.960630
G1 X10.311600 Y9.960630 E5.235175
; Parallel rasterized triangle on layer 0.19
G1 X10.311600 Y10.039400
G1 X10.311600 Y10.039400 E5.235175
G1 X10.311600 Y9.960630
G1 X10.311600 Y9.960630 E5.235175
; Parallel rasterized triangle on layer 0.19
G1 X10.311600 Y10.039400
G1 X10.311600 Y10.039400 E5.235175
G1 X10.308500 Y9.941140
G1 X10.308500 Y9.941140 E5.235175
; Parallel rasterized triangle on layer 0.19
G1 X10.308500 Y10.058900
G1 X10.308500 Y10.058900 E5.235175
G1 X10.308500 Y9.941140
G1 X10.308500 Y9.941140 E5.235175
; Parallel rasterized triangle on layer 0.19
G1 X10.308500 Y10.058900
G1 X10.308500 Y10.058900 E5.235175
G1 X10.304200 Y9.921880
G1 X10.304200 Y9.921880 E5.235175
; Parallel rasterized triangle on layer 0.19
G1 X10.304200 Y10.078100
G1 X10.304200 Y10.078100 E5.235175
G1 X10.304200 Y9.921880
G1 X10.304200 Y9.921880 E5.235175
; Parallel rasterized triangle on layer 0.19
G1 X10.304200 Y10.078100
G1 X10.304200 Y10.078100 E5.235175
G1 X10.298700 Y9.902940
G1 X10.298700 Y9.902940 E5.235175
; Parallel rasterized triangle on layer 0.19
G1 X10.298700 Y10.097100
G1 X10.298700 Y10.097100 E5.235175
G1 X10.298700 Y9.902940
G1 X10.298700 Y9.902940 E5.235175
; Parallel rasterized triangle on layer 0.19
G1 X10.298700 Y10.097100
G1 X10.298700 Y10.097100 E5.235175
G1 X10.292000 Y9.884370
G1 X10.292000 Y9.884370 E5.235175
